; generated by Slic3r 1.3.0-dev on 2017-08-30 at 20:59:02

; external perimeters extrusion width = 0.40mm (1.14mm^3/s)
; perimeters extrusion width = 0.68mm (3.95mm^3/s)
; infill extrusion width = 1.20mm (9.43mm^3/s)
; solid infill extrusion width = 0.68mm (1.32mm^3/s)
; top infill extrusion width = 0.68mm (0.99mm^3/s)
; support material extrusion width = 0.40mm (2.27mm^3/s)

M107
M190 S66 ; set bed temperature and wait for it to be reached
M104 S215 ; set temperature
G28 ; home all axes
G1 Z5 F5000 ; lift nozzle

; Filament gcode

M109 S215 ; set temperature and wait for it to be reached
G21 ; set units to millimeters
G90 ; use absolute coordinates
M82 ; use absolute distances for extrusion
G92 E0
G1 Z0.350 F7800.000
G1 E-2.00000 F2400.00000
G92 E0
G1 X9.168 Y17.274 F7800.000
G1 E2.00000 F2400.00000
G1 F1800
G1 X11.320 Y16.481 E2.20854
G1 X12.500 Y16.375 E2.31625
G1 X207.500 Y16.375 E20.04752
G1 X209.759 Y16.772 E20.25606
G1 X211.747 Y17.915 E20.46460
G1 X213.226 Y19.668 E20.67315
G1 X214.019 Y21.820 E20.88169
G1 X214.125 Y23.000 E20.98940
G1 X214.125 Y183.500 E35.58360
G1 X213.469 Y186.374 E35.85164
G1 X206.969 Y199.874 E37.21407
G1 X205.631 Y201.737 E37.42261
G1 X203.739 Y203.032 E37.63116
G1 X201.000 Y203.625 E37.88596
G1 X19.000 Y203.625 E54.43514
G1 X16.741 Y203.228 E54.64368
G1 X14.753 Y202.085 E54.85222
G1 X13.031 Y199.874 E55.10702
G1 X6.531 Y186.374 E56.46945
G1 X5.875 Y183.500 E56.73750
G1 X5.875 Y23.000 E71.33170
G1 X6.272 Y20.741 E71.54024
G1 X7.415 Y18.753 E71.74878
G1 X9.122 Y17.313 E71.95187
G1 E69.95187 F2400.00000
G92 E0
G1 X22.150 Y39.350 F7800.000
G1 E2.00000 F2400.00000
G1 F1800
G1 X22.150 Y24.650 E3.33666
G1 X27.850 Y24.650 E3.85496
G1 X27.850 Y39.350 E5.19163
G1 X22.210 Y39.350 E5.70447
G1 X21.782 Y39.506 F7800.000
G1 E3.70447 F2400.00000
G92 E0
G1 X29.100 Y25.900 F7800.000
G1 E2.00000 F2400.00000
G1 F1800
G1 X29.100 Y24.600 E2.11825
G1 X35.900 Y24.600 E2.73661
G1 X35.900 Y25.900 E2.85486
G1 X29.160 Y25.900 E3.46777
G1 X30.025 Y26.525 F7800.000
G1 F1800
G1 X30.025 Y40.025 E4.69531
G1 X28.475 Y40.025 E4.83628
G1 X28.475 Y23.975 E6.29572
G1 X36.525 Y23.975 E7.02772
G1 X36.525 Y26.525 E7.25961
G1 X30.085 Y26.525 E7.84520
G1 E5.84520 F2400.00000
G92 E0
G1 X20.900 Y25.900 F7800.000
G1 E2.00000 F2400.00000
G1 F1800
G1 X14.100 Y25.900 E2.61836
G1 X14.100 Y24.600 E2.73661
G1 X20.900 Y24.600 E3.35497
G1 X20.900 Y25.840 E3.46777
G1 X19.975 Y26.525 F7800.000
G1 F1800
G1 X13.475 Y26.525 E4.05881
G1 X13.475 Y23.975 E4.29070
G1 X21.525 Y23.975 E5.02270
G1 X21.525 Y40.025 E6.48214
G1 X19.975 Y40.025 E6.62310
G1 X19.975 Y26.585 E7.84520
G1 X19.350 Y27.150 F7800.000
G1 F1800
G1 X12.850 Y27.150 E8.43624
G1 X12.850 Y23.350 E8.78177
G1 X37.150 Y23.350 E10.99136
G1 X37.150 Y27.150 E11.33689
G1 X30.650 Y27.150 E11.92794
G1 X30.650 Y40.650 E13.15548
G1 X19.350 Y40.650 E14.18299
G1 X19.350 Y27.210 E15.40508
G1 X19.258 Y26.761 F7800.000
G1 X20.750 Y26.213 F7800.000
G1 F1800
G1 X20.750 Y39.713 E17.07529
G1 X21.838 Y40.000 F7800.000
G1 F1800
G1 X28.162 Y40.000 E17.62750
G1 X29.250 Y39.713 F7800.000
G1 F1800
G1 X29.250 Y26.213 E19.29770
G1 X29.412 Y25.250 F7800.000
G1 F1800
G1 X35.588 Y25.250 E19.83728
G1 E17.83728 F2400.00000
G92 E0
G1 X28.162 Y24.000 F7800.000
G1 E2.00000 F2400.00000
G1 F1800
G1 X21.838 Y24.000 E2.55221
G1 X20.588 Y25.250 F7800.000
G1 F1800
G1 X14.412 Y25.250 E3.09179
G1 Z0.350 F7800.000
G1 Z0.450 F7800.000
G1 X21.781 Y24.281 F7800.000
G1 F3600
G1 X28.219 Y24.281 E3.26803
G1 X28.219 Y39.719 E3.69068
G1 X21.781 Y39.719 E3.86692
G1 X21.781 Y24.341 E4.28793
G1 X22.300 Y24.800 F7800.000
G1 F900
G1 X27.700 Y24.800 E4.37291
G1 X27.700 Y39.200 E4.59954
G1 X22.300 Y39.200 E4.68452
G1 X22.300 Y24.860 E4.91020
G1 X22.252 Y24.403 F7800.000
G1 E2.91020 F2400.00000
G92 E0
G1 X29.623 Y26.123 F7800.000
G1 E2.00000 F2400.00000
G1 F3600
G1 X29.623 Y39.623 E2.36962
G1 X28.877 Y39.623 E2.39004
G1 X28.877 Y24.377 E2.80745
G1 X36.123 Y24.377 E3.00583
G1 X36.123 Y26.123 E3.05363
G1 X29.683 Y26.123 E3.22995
G1 E1.22995 F2400.00000
G92 E0
G1 X20.377 Y26.123 F7800.000
G1 E2.00000 F2400.00000
G1 F3600
G1 X13.877 Y26.123 E2.17796
G1 X13.877 Y24.377 E2.22576
G1 X21.123 Y24.377 E2.42415
G1 X21.123 Y39.623 E2.84156
G1 X20.377 Y39.623 E2.86198
G1 X20.377 Y26.183 E3.22995
G1 X19.719 Y26.781 F7800.000
G1 F3600
G1 X13.219 Y26.781 E3.40792
G1 X13.219 Y23.719 E3.49178
G1 X36.781 Y23.719 E4.13690
G1 X36.781 Y26.781 E4.22076
G1 X30.281 Y26.781 E4.39872
G1 X30.281 Y40.281 E4.76834
G1 X19.719 Y40.281 E5.05754
G1 X19.719 Y26.841 E5.42551
G1 X19.200 Y27.300 F7800.000
G1 F1800
G1 X12.700 Y27.300 E5.52781
G1 X12.700 Y23.200 E5.59233
G1 X37.300 Y23.200 E5.97949
G1 X37.300 Y27.300 E6.04401
G1 X30.800 Y27.300 E6.14631
G1 X30.800 Y40.800 E6.35877
G1 X19.200 Y40.800 E6.54133
G1 X19.200 Y27.360 E6.75284
G1 X19.106 Y26.911 F7800.000
G1 X20.750 Y25.794 F7800.000
G1 F1200
G1 X20.750 Y39.294 E6.78980
G1 X29.250 Y39.294 F7800.000
G1 F1200
G1 X29.250 Y25.794 E6.82676
G1 X29.279 Y24.879 F7800.000
G1 F1200
G1 X29.792 Y25.391 E6.84816
G1 X30.208 Y25.391 E6.86046
G1 X30.208 Y25.721 E6.87018
G1 X31.126 Y25.721 E6.89728
G1 X30.185 Y24.779 E6.93659
G1 X31.189 Y24.779 E6.96627
G1 X32.130 Y25.721 E7.00557
G1 X33.135 Y25.721 E7.03525
G1 X32.194 Y24.779 E7.07456
G1 X33.199 Y24.779 E7.10423
G1 X34.140 Y25.721 E7.14354
G1 X35.145 Y25.721 E7.17321
G1 X34.203 Y24.779 E7.21252
G1 X35.208 Y24.779 E7.24219
G1 X35.721 Y25.292 E7.26359
G1 X35.721 Y25.292 F7800.000
G1 F1200
G1 X35.208 Y24.779 E7.28500
G1 X34.203 Y24.779 E7.31467
G1 X35.145 Y25.721 E7.35398
G1 X34.140 Y25.721 E7.38365
G1 X33.199 Y24.779 E7.42296
G1 X32.194 Y24.779 E7.45263
G1 X33.135 Y25.721 E7.49194
G1 X32.130 Y25.721 E7.52161
G1 X31.189 Y24.779 E7.56092
G1 X30.185 Y24.779 E7.59059
G1 X31.126 Y25.721 E7.62990
G1 X30.208 Y25.721 E7.65700
G1 X30.208 Y25.391 E7.66672
G1 X29.792 Y25.391 E7.67902
G1 X29.279 Y24.879 E7.70042
G1 E5.70042 F2400.00000
G92 E0
G1 X20.721 Y25.292 F7800.000
G1 E2.00000 F2400.00000
G1 F1200
G1 X20.208 Y24.779 E2.02257
G1 X19.149 Y24.779 E2.05557
G1 X20.090 Y25.721 E2.09703
G1 X19.030 Y25.721 E2.13003
G1 X18.089 Y24.779 E2.17149
G1 X17.029 Y24.779 E2.20449
G1 X17.971 Y25.721 E2.24595
G1 X16.911 Y25.721 E2.27895
G1 X15.970 Y24.779 E2.32041
G1 X14.910 Y24.779 E2.35341
G1 X15.851 Y25.721 E2.39487
G1 X14.792 Y25.721 E2.42787
G1 X14.279 Y25.208 E2.45044
G1 X14.279 Y25.208 F7800.000
G1 F1200
G1 X14.792 Y25.721 E2.47301
G1 X15.851 Y25.721 E2.50602
G1 X14.910 Y24.779 E2.54747
G1 X15.970 Y24.779 E2.58047
G1 X16.911 Y25.721 E2.62193
G1 X17.971 Y25.721 E2.65493
G1 X17.029 Y24.779 E2.69638
G1 X18.089 Y24.779 E2.72939
G1 X19.030 Y25.721 E2.77084
G1 X20.090 Y25.721 E2.80384
G1 X19.149 Y24.779 E2.84530
G1 X20.208 Y24.779 E2.87830
G1 X20.721 Y25.292 E2.90087
G1 Z0.550 F7800.000
G1 X21.781 Y24.281 F7800.000
G1 F3600
G1 X28.219 Y24.281 E3.07711
G1 X28.219 Y39.719 E3.49976
G1 X21.781 Y39.719 E3.67600
G1 X21.781 Y24.341 E4.09701
G1 X22.300 Y24.800 F7800.000
G1 F900
G1 X27.700 Y24.800 E4.18200
G1 X27.700 Y39.200 E4.40862
G1 X22.300 Y39.200 E4.49360
G1 X22.300 Y24.860 E4.71929
G1 X22.252 Y24.403 F7800.000
G1 E2.71929 F2400.00000
G92 E0
G1 X29.623 Y26.123 F7800.000
G1 E2.00000 F2400.00000
G1 F3600
G1 X29.623 Y39.623 E2.36962
G1 X28.877 Y39.623 E2.39004
G1 X28.877 Y24.377 E2.80745
G1 X36.123 Y24.377 E3.00583
G1 X36.123 Y26.123 E3.05363
G1 X29.683 Y26.123 E3.22995
G1 E1.22995 F2400.00000
G92 E0
G1 X20.377 Y26.123 F7800.000
G1 E2.00000 F2400.00000
G1 F3600
G1 X13.877 Y26.123 E2.17796
G1 X13.877 Y24.377 E2.22576
G1 X21.123 Y24.377 E2.42415
G1 X21.123 Y39.623 E2.84156
G1 X20.377 Y39.623 E2.86198
G1 X20.377 Y26.183 E3.22995
G1 X19.719 Y26.781 F7800.000
G1 F3600
G1 X13.219 Y26.781 E3.40792
G1 X13.219 Y23.719 E3.49178
G1 X36.781 Y23.719 E4.13690
G1 X36.781 Y26.781 E4.22076
G1 X30.281 Y26.781 E4.39872
G1 X30.281 Y40.281 E4.76834
G1 X19.719 Y40.281 E5.05754
G1 X19.719 Y26.841 E5.42551
G1 X19.200 Y27.300 F7800.000
G1 F1800
G1 X12.700 Y27.300 E5.52781
G1 X12.700 Y23.200 E5.59233
G1 X37.300 Y23.200 E5.97949
G1 X37.300 Y27.300 E6.04401
G1 X30.800 Y27.300 E6.14631
G1 X30.800 Y40.800 E6.35877
G1 X19.200 Y40.800 E6.54133
G1 X19.200 Y27.360 E6.75284
G1 X19.106 Y26.911 F7800.000
G1 X20.750 Y25.794 F7800.000
G1 F1200
G1 X20.750 Y39.294 E6.78980
G1 X29.250 Y39.294 F7800.000
G1 F1200
G1 X29.250 Y25.794 E6.82676
G1 X29.792 Y24.779 F7800.000
G1 F1200
G1 X29.279 Y25.292 E6.84933
G1 X29.279 Y25.391 E6.85242
G1 X29.696 Y25.391 E6.86540
G1 X29.696 Y25.721 E6.87566
G1 X29.910 Y25.721 E6.88233
G1 X30.851 Y24.779 E6.92379
G1 X31.911 Y24.779 E6.95679
G1 X30.970 Y25.721 E6.99824
G1 X32.029 Y25.721 E7.03125
G1 X32.971 Y24.779 E7.07270
G1 X34.030 Y24.779 E7.10570
G1 X33.089 Y25.721 E7.14716
G1 X34.149 Y25.721 E7.18016
G1 X35.090 Y24.779 E7.22162
G1 X35.721 Y24.779 E7.24127
G1 X35.721 Y25.208 E7.25462
G1 X35.208 Y25.721 E7.27719
G1 X35.208 Y25.721 F7800.000
G1 F1200
G1 X35.721 Y25.208 E7.29976
G1 X35.721 Y24.779 E7.31311
G1 X35.090 Y24.779 E7.33276
G1 X34.149 Y25.721 E7.37422
G1 X33.089 Y25.721 E7.40722
G1 X34.030 Y24.779 E7.44868
G1 X32.971 Y24.779 E7.48168
G1 X32.029 Y25.721 E7.52314
G1 X30.970 Y25.721 E7.55614
G1 X31.911 Y24.779 E7.59760
G1 X30.851 Y24.779 E7.63060
G1 X29.910 Y25.721 E7.67206
G1 X29.696 Y25.721 E7.67873
G1 X29.696 Y25.391 E7.68899
G1 X29.279 Y25.391 E7.70196
G1 X29.279 Y25.292 E7.70506
G1 X29.792 Y24.779 E7.72763
G1 E5.72763 F2400.00000
G92 E0
G1 X20.208 Y25.391 F7800.000
G1 E2.00000 F2400.00000
G1 F1200
G1 X20.721 Y24.879 E2.02140
G1 X20.721 Y24.779 E2.02434
G1 X19.815 Y24.779 E2.05108
G1 X18.874 Y25.721 E2.09038
G1 X17.870 Y25.721 E2.12006
G1 X18.811 Y24.779 E2.15937
G1 X17.806 Y24.779 E2.18904
G1 X16.865 Y25.721 E2.22835
G1 X15.860 Y25.721 E2.25802
G1 X16.801 Y24.779 E2.29733
G1 X15.797 Y24.779 E2.32700
G1 X14.855 Y25.721 E2.36631
G1 X14.279 Y25.721 E2.38332
G1 X14.279 Y25.292 E2.39598
G1 X14.792 Y24.779 E2.41739
G1 X14.792 Y24.779 F7800.000
G1 F1200
G1 X14.279 Y25.292 E2.43879
G1 X14.279 Y25.721 E2.45145
G1 X14.855 Y25.721 E2.46846
G1 X15.797 Y24.779 E2.50777
G1 X16.801 Y24.779 E2.53744
G1 X15.860 Y25.721 E2.57675
G1 X16.865 Y25.721 E2.60642
G1 X17.806 Y24.779 E2.64573
G1 X18.811 Y24.779 E2.67540
G1 X17.870 Y25.721 E2.71471
G1 X18.874 Y25.721 E2.74438
G1 X19.815 Y24.779 E2.78369
G1 X20.721 Y24.779 E2.81043
G1 X20.721 Y24.879 E2.81336
G1 X20.208 Y25.391 E2.83476
M106 S229.5
G1 Z0.650 F7800.000
G1 X21.781 Y24.281 F7800.000
G1 F3600
G1 X28.219 Y24.281 E3.01100
G1 X28.219 Y39.719 E3.43366
G1 X21.781 Y39.719 E3.60990
G1 X21.781 Y24.341 E4.03090
G1 X22.300 Y24.800 F7800.000
G1 F900
G1 X27.700 Y24.800 E4.11589
G1 X27.700 Y39.200 E4.34251
G1 X22.300 Y39.200 E4.42750
G1 X22.300 Y24.860 E4.65318
G1 X22.252 Y24.403 F7800.000
G1 E2.65318 F2400.00000
G92 E0
G1 X29.623 Y26.123 F7800.000
G1 E2.00000 F2400.00000
G1 F3600
G1 X29.623 Y39.623 E2.36962
G1 X28.877 Y39.623 E2.39004
G1 X28.877 Y24.377 E2.80745
G1 X36.123 Y24.377 E3.00583
G1 X36.123 Y26.123 E3.05363
G1 X29.683 Y26.123 E3.22995
G1 E1.22995 F2400.00000
G92 E0
G1 X20.377 Y26.123 F7800.000
G1 E2.00000 F2400.00000
G1 F3600
G1 X13.877 Y26.123 E2.17796
G1 X13.877 Y24.377 E2.22576
G1 X21.123 Y24.377 E2.42415
G1 X21.123 Y39.623 E2.84156
G1 X20.377 Y39.623 E2.86198
G1 X20.377 Y26.183 E3.22995
G1 X19.719 Y26.781 F7800.000
G1 F3600
G1 X13.219 Y26.781 E3.40792
G1 X13.219 Y23.719 E3.49178
G1 X36.781 Y23.719 E4.13690
G1 X36.781 Y26.781 E4.22076
G1 X30.281 Y26.781 E4.39872
G1 X30.281 Y40.281 E4.76834
G1 X19.719 Y40.281 E5.05754
G1 X19.719 Y26.841 E5.42551
G1 X19.200 Y27.300 F7800.000
G1 F1800
G1 X12.700 Y27.300 E5.52781
G1 X12.700 Y23.200 E5.59233
G1 X37.300 Y23.200 E5.97949
G1 X37.300 Y27.300 E6.04401
G1 X30.800 Y27.300 E6.14631
G1 X30.800 Y40.800 E6.35877
G1 X19.200 Y40.800 E6.54133
G1 X19.200 Y27.360 E6.75284
G1 X19.106 Y26.911 F7800.000
G1 X20.750 Y25.794 F7800.000
G1 F1200
G1 X20.750 Y39.294 E6.78980
G1 X29.250 Y39.294 F7800.000
G1 F1200
G1 X29.250 Y25.794 E6.82676
G1 X29.279 Y24.879 F7800.000
G1 F1200
G1 X29.792 Y25.391 E6.84816
G1 X30.208 Y25.391 E6.86046
G1 X30.208 Y25.721 E6.87018
G1 X31.126 Y25.721 E6.89728
G1 X30.185 Y24.779 E6.93659
G1 X31.189 Y24.779 E6.96626
G1 X32.130 Y25.721 E7.00557
G1 X33.135 Y25.721 E7.03524
G1 X32.194 Y24.779 E7.07455
G1 X33.199 Y24.779 E7.10422
G1 X34.140 Y25.721 E7.14353
G1 X35.145 Y25.721 E7.17320
G1 X34.203 Y24.779 E7.21251
G1 X35.208 Y24.779 E7.24218
G1 X35.721 Y25.292 E7.26359
G1 X35.721 Y25.292 F7800.000
G1 F1200
G1 X35.208 Y24.779 E7.28499
G1 X34.203 Y24.779 E7.31466
G1 X35.144 Y25.721 E7.35397
G1 X34.140 Y25.721 E7.38364
G1 X33.199 Y24.779 E7.42295
G1 X32.194 Y24.779 E7.45262
G1 X33.135 Y25.721 E7.49192
G1 X32.130 Y25.721 E7.52160
G1 X31.189 Y24.779 E7.56090
G1 X30.185 Y24.779 E7.59058
G1 X31.126 Y25.721 E7.62988
G1 X30.208 Y25.721 E7.65698
G1 X30.208 Y25.391 E7.66671
G1 X29.792 Y25.391 E7.67900
G1 X29.279 Y24.879 E7.70041
G1 E5.70041 F2400.00000
G92 E0
G1 X20.721 Y25.292 F7800.000
G1 E2.00000 F2400.00000
G1 F1200
G1 X20.208 Y24.779 E2.02257
G1 X19.149 Y24.779 E2.05557
G1 X20.090 Y25.721 E2.09703
G1 X19.030 Y25.721 E2.13003
G1 X18.089 Y24.779 E2.17149
G1 X17.029 Y24.779 E2.20449
G1 X17.971 Y25.721 E2.24594
G1 X16.911 Y25.721 E2.27895
G1 X15.970 Y24.779 E2.32040
G1 X14.910 Y24.779 E2.35340
G1 X15.851 Y25.721 E2.39486
G1 X14.792 Y25.721 E2.42786
G1 X14.279 Y25.208 E2.45043
G1 X14.279 Y25.208 F7800.000
G1 F1200
G1 X14.792 Y25.721 E2.47300
G1 X15.851 Y25.721 E2.50601
G1 X14.910 Y24.779 E2.54746
G1 X15.970 Y24.779 E2.58046
G1 X16.911 Y25.721 E2.62191
G1 X17.971 Y25.721 E2.65492
G1 X17.029 Y24.779 E2.69637
G1 X18.089 Y24.779 E2.72937
G1 X19.030 Y25.721 E2.77083
G1 X20.090 Y25.721 E2.80383
G1 X19.149 Y24.779 E2.84528
G1 X20.208 Y24.779 E2.87829
G1 X20.721 Y25.292 E2.90086
G1 Z0.750 F7800.000
G1 X21.781 Y24.281 F7800.000
G1 F3600
G1 X28.219 Y24.281 E3.07710
G1 X28.219 Y39.719 E3.49975
G1 X21.781 Y39.719 E3.67599
G1 X21.781 Y24.341 E4.09699
G1 X22.300 Y24.800 F7800.000
G1 F900
G1 X27.700 Y24.800 E4.18198
G1 X27.700 Y39.200 E4.40860
G1 X22.300 Y39.200 E4.49359
G1 X22.300 Y24.860 E4.71927
G1 X22.252 Y24.403 F7800.000
G1 E2.71927 F2400.00000
G92 E0
G1 X29.623 Y26.123 F7800.000
G1 E2.00000 F2400.00000
G1 F3600
G1 X29.623 Y39.623 E2.36962
G1 X28.877 Y39.623 E2.39004
G1 X28.877 Y24.377 E2.80745
G1 X36.123 Y24.377 E3.00583
G1 X36.123 Y26.123 E3.05363
G1 X29.683 Y26.123 E3.22995
G1 E1.22995 F2400.00000
G92 E0
G1 X20.377 Y26.123 F7800.000
G1 E2.00000 F2400.00000
G1 F3600
G1 X13.877 Y26.123 E2.17796
G1 X13.877 Y24.377 E2.22576
G1 X21.123 Y24.377 E2.42415
G1 X21.123 Y39.623 E2.84156
G1 X20.377 Y39.623 E2.86198
G1 X20.377 Y26.183 E3.22995
G1 X19.719 Y26.781 F7800.000
G1 F3600
G1 X13.219 Y26.781 E3.40792
G1 X13.219 Y23.719 E3.49178
G1 X36.781 Y23.719 E4.13690
G1 X36.781 Y26.781 E4.22076
G1 X30.281 Y26.781 E4.39872
G1 X30.281 Y40.281 E4.76834
G1 X19.719 Y40.281 E5.05754
G1 X19.719 Y26.841 E5.42551
G1 X19.200 Y27.300 F7800.000
G1 F1800
G1 X12.700 Y27.300 E5.52781
G1 X12.700 Y23.200 E5.59233
G1 X37.300 Y23.200 E5.97949
G1 X37.300 Y27.300 E6.04401
G1 X30.800 Y27.300 E6.14631
G1 X30.800 Y40.800 E6.35877
G1 X19.200 Y40.800 E6.54133
G1 X19.200 Y27.360 E6.75284
G1 X19.106 Y26.911 F7800.000
G1 X20.750 Y25.794 F7800.000
G1 F1200
G1 X20.750 Y39.294 E6.78980
G1 X29.250 Y39.294 F7800.000
G1 F1200
G1 X29.250 Y25.794 E6.82676
G1 X29.792 Y24.779 F7800.000
G1 F1200
G1 X29.279 Y25.292 E6.84933
G1 X29.279 Y25.391 E6.85242
G1 X29.696 Y25.391 E6.86540
G1 X29.696 Y25.721 E6.87566
G1 X29.910 Y25.721 E6.88233
G1 X30.851 Y24.779 E6.92378
G1 X31.911 Y24.779 E6.95679
G1 X30.970 Y25.721 E6.99824
G1 X32.029 Y25.721 E7.03124
G1 X32.971 Y24.779 E7.07270
G1 X34.030 Y24.779 E7.10570
G1 X33.089 Y25.721 E7.14715
G1 X34.149 Y25.721 E7.18016
G1 X35.090 Y24.779 E7.22161
G1 X35.721 Y24.779 E7.24126
G1 X35.721 Y25.208 E7.25461
G1 X35.208 Y25.721 E7.27718
G1 X35.208 Y25.721 F7800.000
G1 F1200
G1 X35.721 Y25.208 E7.29975
G1 X35.721 Y24.779 E7.31310
G1 X35.090 Y24.779 E7.33276
G1 X34.149 Y25.721 E7.37421
G1 X33.089 Y25.721 E7.40721
G1 X34.030 Y24.779 E7.44867
G1 X32.971 Y24.779 E7.48167
G1 X32.029 Y25.721 E7.52312
G1 X30.970 Y25.721 E7.55613
G1 X31.911 Y24.779 E7.59758
