; generated by Slic3r 1.3.0-dev on 2017-08-31 at 08:58:30

; external perimeters extrusion width = 0.40mm (1.14mm^3/s)
; perimeters extrusion width = 0.68mm (3.95mm^3/s)
; infill extrusion width = 1.20mm (9.43mm^3/s)
; solid infill extrusion width = 0.68mm (1.32mm^3/s)
; top infill extrusion width = 0.68mm (0.99mm^3/s)
; support material extrusion width = 0.40mm (2.27mm^3/s)

M107
M190 S66 ; set bed temperature and wait for it to be reached
M104 S215 ; set temperature
G28 ; home all axes
G1 Z5 F5000 ; lift nozzle

; Filament gcode

M109 S215 ; set temperature and wait for it to be reached
G21 ; set units to millimeters
G90 ; use absolute coordinates
M82 ; use absolute distances for extrusion
G92 E0
G1 Z0.350 F7800.000
G1 E-2.00000 F2400.00000
G92 E0
G1 X15.872 Y15.249 F7800.000
G1 E2.00000 F2400.00000
G1 F1800
G1 X18.021 Y13.812 E2.23504
G1 X22.358 Y12.016 E2.66181
G1 X24.880 Y11.512 E2.89569
G1 X189.979 Y11.185 E17.90812
G1 X192.492 Y11.185 E18.13664
G1 X195.027 Y11.689 E18.37168
G1 X199.363 Y13.486 E18.79845
G1 X201.513 Y14.922 E19.03350
G1 X203.280 Y16.689 E19.26082
G1 X204.717 Y18.839 E19.49587
G1 X206.513 Y23.175 E19.92263
G1 X207.014 Y25.499 E20.13887
G1 X209.629 Y107.722 E27.61912
G1 X209.632 Y110.512 E27.87278
G1 X208.651 Y192.735 E35.34979
G1 X208.147 Y195.191 E35.57779
G1 X206.351 Y199.527 E36.00456
G1 X204.915 Y201.676 E36.23960
G1 X203.147 Y203.444 E36.46692
G1 X200.998 Y204.880 E36.70197
G1 X196.662 Y206.676 E37.12874
G1 X194.260 Y207.179 E37.35189
G1 X113.018 Y208.814 E44.74069
G1 X28.789 Y208.488 E52.39963
G1 X26.280 Y207.984 E52.63230
G1 X21.944 Y206.188 E53.05907
G1 X19.795 Y204.751 E53.29412
G1 X18.027 Y202.984 E53.52144
G1 X16.591 Y200.834 E53.75649
G1 X14.795 Y196.498 E54.18326
G1 X14.293 Y194.144 E54.40216
G1 X12.004 Y110.239 E62.03446
G1 X10.369 Y28.670 E69.45298
G1 X10.368 Y26.037 E69.69237
G1 X10.872 Y23.502 E69.92742
G1 X12.668 Y19.166 E70.35419
G1 X14.104 Y17.016 E70.58923
G1 X15.830 Y15.291 E70.81110
G1 E68.81110 F2400.00000
G92 E0
G1 X25.243 Y34.115 F7800.000
G1 E2.00000 F2400.00000
G1 F1800
G1 X24.026 Y33.802 E2.11425
G1 X23.226 Y33.486 E2.19248
G1 X22.472 Y33.071 E2.27071
G1 X21.985 Y32.717 E2.32543
G1 X23.915 Y30.788 E2.57358
G1 X24.376 Y31.041 E2.62144
G1 X24.861 Y31.233 E2.66883
G1 X25.243 Y31.331 E2.70471
G1 X25.243 Y34.055 E2.95235
G1 X25.193 Y34.512 F7800.000
G1 E0.95235 F2400.00000
G92 E0
G1 X23.889 Y29.930 F7800.000
G1 E2.00000 F2400.00000
G1 F1800
G1 X20.557 Y33.262 E2.42847
G1 X20.168 Y32.873 E2.47850
G1 X23.487 Y29.553 E2.90540
G1 X23.845 Y29.889 E2.95000
G1 E0.95000 F2400.00000
G92 E0
G1 X22.683 Y27.562 F7800.000
G1 E2.00000 F2400.00000
G1 F1800
G1 X17.968 Y27.562 E2.42879
G1 X17.968 Y27.012 E2.47882
G1 X22.683 Y27.012 E2.90761
G1 X22.666 Y27.287 E2.93267
G1 X22.680 Y27.502 E2.95228
G1 X22.081 Y28.187 F7800.000
G1 F1800
G1 X22.285 Y28.814 E3.01227
G1 X22.623 Y29.534 E3.08455
G1 X20.695 Y31.462 E3.33255
G1 X20.139 Y30.587 E3.42678
G1 X19.773 Y29.809 E3.50501
G1 X19.507 Y28.991 E3.58323
G1 X19.354 Y28.187 E3.65763
G1 X22.021 Y28.187 E3.90014
G1 X22.462 Y28.065 F7800.000
G1 X22.081 Y26.387 F7800.000
G1 F1800
G1 X19.358 Y26.387 E4.14771
G1 X19.498 Y25.611 E4.21936
G1 X19.773 Y24.764 E4.30035
G1 X20.155 Y23.962 E4.38119
G1 X20.695 Y23.112 E4.47272
G1 X22.623 Y25.040 E4.72072
G1 X22.285 Y25.759 E4.79300
G1 X22.100 Y26.330 E4.84753
G1 X22.030 Y26.784 F7800.000
G1 X23.487 Y25.021 F7800.000
G1 F1800
G1 X20.168 Y21.701 E5.27443
G1 X20.557 Y21.312 E5.32446
G1 X23.889 Y24.644 E5.75293
G1 X23.531 Y24.979 E5.79753
G1 X23.915 Y23.786 F7800.000
G1 F1800
G1 X21.985 Y21.856 E6.04568
G1 X22.472 Y21.503 E6.10040
G1 X23.226 Y21.088 E6.17863
G1 X24.026 Y20.772 E6.25686
G1 X25.243 Y20.459 E6.37111
G1 X25.243 Y23.243 E6.62421
G1 X24.861 Y23.341 E6.66009
G1 X24.376 Y23.533 E6.70747
G1 X23.967 Y23.757 E6.74988
G1 X23.601 Y24.035 F7800.000
G1 X25.868 Y23.817 F7800.000
G1 F1800
G1 X25.868 Y19.112 E7.17772
G1 X26.418 Y19.112 E7.22775
G1 X26.418 Y23.817 E7.65559
G1 X25.928 Y23.817 E7.70017
G1 X25.947 Y24.444 F7800.000
G1 F1800
G1 X26.322 Y24.442 E7.73426
G1 X26.677 Y24.487 E7.76681
G1 X27.024 Y24.576 E7.79936
G1 X27.357 Y24.708 E7.83191
G1 X27.656 Y24.872 E7.86294
G1 X27.960 Y25.090 E7.89701
G1 X28.232 Y25.348 E7.93107
G1 X28.449 Y25.611 E7.96210
G1 X28.641 Y25.914 E7.99465
G1 X28.793 Y26.238 E8.02720
G1 X28.904 Y26.579 E8.05985
G1 X28.972 Y26.946 E8.09382
G1 X28.993 Y27.287 E8.12485
G1 X28.971 Y27.644 E8.15740
G1 X28.904 Y27.996 E8.18995
G1 X28.793 Y28.336 E8.22251
G1 X28.641 Y28.660 E8.25506
G1 X28.449 Y28.963 E8.28761
G1 X28.221 Y29.238 E8.32016
G1 X27.960 Y29.483 E8.35272
G1 X27.670 Y29.694 E8.38527
G1 X27.357 Y29.866 E8.41782
G1 X27.024 Y29.998 E8.45037
G1 X26.677 Y30.087 E8.48292
G1 X26.322 Y30.132 E8.51548
G1 X25.964 Y30.132 E8.54803
G1 X25.609 Y30.087 E8.58058
G1 X25.262 Y29.998 E8.61313
G1 X24.929 Y29.866 E8.64568
G1 X24.615 Y29.694 E8.67824
G1 X24.326 Y29.483 E8.71079
G1 X24.065 Y29.238 E8.74334
G1 X23.837 Y28.963 E8.77589
G1 X23.645 Y28.660 E8.80845
G1 X23.492 Y28.336 E8.84100
G1 X23.382 Y27.996 E8.87355
G1 X23.315 Y27.644 E8.90610
G1 X23.292 Y27.287 E8.93865
G1 X23.315 Y26.929 E8.97130
G1 X23.387 Y26.562 E9.00527
G1 X23.492 Y26.238 E9.03630
G1 X23.645 Y25.914 E9.06885
G1 X23.837 Y25.611 E9.10140
G1 X24.065 Y25.335 E9.13396
G1 X24.326 Y25.090 E9.16651
G1 X24.615 Y24.880 E9.19906
G1 X24.929 Y24.708 E9.23161
G1 X25.262 Y24.576 E9.26416
G1 X25.609 Y24.487 E9.29672
G1 X25.887 Y24.452 E9.32226
G1 X25.953 Y24.428 F7800.000
G1 X27.043 Y23.243 F7800.000
G1 F1800
G1 X27.043 Y20.459 E9.57537
G1 X28.260 Y20.772 E9.68961
G1 X29.060 Y21.088 E9.76784
G1 X29.814 Y21.503 E9.84607
G1 X30.300 Y21.856 E9.90080
G1 X28.371 Y23.786 E10.14894
G1 X27.909 Y23.533 E10.19681
G1 X27.425 Y23.341 E10.24419
G1 X27.101 Y23.257 E10.27462
G1 X26.645 Y23.200 F7800.000
G1 E8.27462 F2400.00000
G92 E0
G1 X29.662 Y25.040 F7800.000
G1 E2.00000 F2400.00000
G1 F1800
G1 X31.591 Y23.112 E2.24800
G1 X32.146 Y23.987 E2.34223
G1 X32.512 Y24.765 E2.42046
G1 X32.778 Y25.583 E2.49868
G1 X32.932 Y26.387 E2.57308
G1 X30.205 Y26.387 E2.82104
G1 X30.001 Y25.759 E2.88104
G1 X29.688 Y25.095 E2.94786
G1 X29.452 Y24.764 F7800.000
G1 E0.94786 F2400.00000
G92 E0
G1 X30.205 Y28.187 F7800.000
G1 E2.00000 F2400.00000
G1 F1800
G1 X32.932 Y28.187 E2.24796
G1 X32.778 Y28.991 E2.32236
G1 X32.512 Y29.809 E2.40059
G1 X32.146 Y30.587 E2.47882
G1 X31.591 Y31.462 E2.57304
G1 X29.662 Y29.534 E2.82104
G1 X30.001 Y28.814 E2.89332
G1 X30.186 Y28.244 E2.94786
G1 X30.256 Y27.790 F7800.000
G1 E0.94786 F2400.00000
G92 E0
G1 X28.371 Y30.788 F7800.000
G1 E2.00000 F2400.00000
G1 F1800
G1 X30.300 Y32.717 E2.24815
G1 X29.814 Y33.071 E2.30287
G1 X29.060 Y33.486 E2.38110
G1 X28.260 Y33.802 E2.45933
G1 X27.043 Y34.115 E2.57358
G1 X27.043 Y31.331 E2.82668
G1 X27.425 Y31.233 E2.86256
G1 X27.909 Y31.041 E2.90994
G1 X28.318 Y30.817 E2.95235
G1 X28.684 Y30.539 F7800.000
G1 X28.397 Y29.930 F7800.000
G1 F1800
G1 X28.798 Y29.553 E3.00241
G1 X32.118 Y32.873 E3.42931
G1 X31.729 Y33.262 E3.47934
G1 X28.439 Y29.973 E3.90235
G1 E1.90235 F2400.00000
G92 E0
G1 X29.602 Y27.562 F7800.000
G1 E2.00000 F2400.00000
G1 F1800
G1 X29.620 Y27.287 E2.02507
G1 X29.602 Y27.012 E2.05013
G1 X34.318 Y27.012 E2.47892
G1 X34.318 Y27.562 E2.52895
G1 X29.662 Y27.562 E2.95228
G1 E0.95228 F2400.00000
G92 E0
G1 X28.796 Y25.023 F7800.000
G1 E2.00000 F2400.00000
G1 F1800
G1 X28.397 Y24.644 E2.05005
G1 X31.729 Y21.312 E2.47851
G1 X32.118 Y21.701 E2.52854
G1 X28.838 Y24.980 E2.95027
G1 E0.95027 F2400.00000
G92 E0
G1 X26.418 Y30.757 F7800.000
G1 E2.00000 F2400.00000
G1 F1800
G1 X26.418 Y35.462 E2.42784
G1 X25.868 Y35.462 E2.47787
G1 X25.868 Y30.757 E2.90571
G1 X26.358 Y30.757 E2.95028
G1 E0.95028 F2400.00000
G92 E0
G1 X27.043 Y34.868 F7800.000
G1 E2.00000 F2400.00000
G1 F1800
G1 X27.043 Y36.087 E2.11083
G1 X25.243 Y36.087 E2.27450
G1 X25.243 Y34.868 E2.38533
G1 X24.709 Y34.801 E2.43421
G1 X23.779 Y34.562 E2.52156
G1 X22.886 Y34.208 E2.60890
G1 X22.044 Y33.745 E2.69625
G1 X21.414 Y33.288 E2.76701
G1 X20.557 Y34.146 E2.87733
G1 X19.284 Y32.873 E3.04100
G1 X20.117 Y32.040 E3.14817
G1 X19.440 Y30.972 E3.26315
G1 X19.031 Y30.103 E3.35050
G1 X18.734 Y29.189 E3.43785
G1 X18.543 Y28.187 E3.53063
G1 X17.343 Y28.187 E3.63973
G1 X17.343 Y26.387 E3.80340
G1 X18.543 Y26.387 E3.91250
G1 X18.734 Y25.385 E4.00528
G1 X19.031 Y24.471 E4.09263
G1 X19.440 Y23.602 E4.17997
G1 X20.117 Y22.534 E4.29496
G1 X19.284 Y21.701 E4.40212
G1 X20.557 Y20.428 E4.56580
G1 X21.414 Y21.286 E4.67611
G1 X22.044 Y20.828 E4.74687
G1 X22.886 Y20.366 E4.83422
G1 X23.779 Y20.012 E4.92157
G1 X24.709 Y19.773 E5.00892
G1 X25.243 Y19.706 E5.05780
G1 X25.243 Y18.487 E5.16862
G1 X27.043 Y18.487 E5.33230
G1 X27.043 Y19.706 E5.44312
G1 X27.576 Y19.773 E5.49200
G1 X28.507 Y20.012 E5.57935
G1 X29.400 Y20.366 E5.66670
G1 X30.241 Y20.828 E5.75405
G1 X30.871 Y21.286 E5.82481
G1 X31.729 Y20.428 E5.93512
G1 X33.002 Y21.701 E6.09880
G1 X32.168 Y22.534 E6.20596
G1 X32.846 Y23.602 E6.32095
G1 X33.255 Y24.471 E6.40829
G1 X33.552 Y25.385 E6.49564
G1 X33.743 Y26.387 E6.58842
G1 X34.943 Y26.387 E6.69752
G1 X34.943 Y28.187 E6.86120
G1 X33.743 Y28.187 E6.97029
G1 X33.552 Y29.189 E7.06308
G1 X33.255 Y30.103 E7.15042
G1 X32.846 Y30.972 E7.23777
G1 X32.168 Y32.040 E7.35276
G1 X33.002 Y32.873 E7.45992
G1 X31.729 Y34.146 E7.62360
G1 X30.871 Y33.288 E7.73391
G1 X30.241 Y33.745 E7.80467
G1 X29.400 Y34.208 E7.89202
G1 X28.507 Y34.562 E7.97937
G1 X27.576 Y34.801 E8.06671
G1 X27.102 Y34.861 E8.11014
G1 X26.644 Y34.896 F7800.000
G1 X26.771 Y34.548 F7800.000
G1 F1800
G1 X27.501 Y34.409 E8.12064
G1 X28.383 Y34.182 E8.13350
G1 X29.230 Y33.847 E8.14636
G1 X30.027 Y33.408 E8.15921
G1 X30.842 Y32.817 E8.17342
G1 X31.708 Y32.021 F7800.000
G1 F1800
G1 X32.496 Y30.780 E8.19419
G1 X32.884 Y29.956 E8.20705
G1 X33.165 Y29.090 E8.21991
G1 X33.397 Y27.874 E8.23738
G1 X33.397 Y26.699 F7800.000
G1 F1800
G1 X33.165 Y25.484 E8.25486
G1 X32.884 Y24.618 E8.26772
G1 X32.496 Y23.794 E8.28057
G1 X31.708 Y22.553 E8.30134
G1 X30.842 Y21.757 F7800.000
G1 F1800
G1 X30.027 Y21.166 E8.31555
G1 X29.230 Y20.727 E8.32841
G1 X28.383 Y20.392 E8.34127
G1 X27.501 Y20.165 E8.35412
G1 X26.771 Y20.026 E8.36463
G1 X25.515 Y20.026 F7800.000
G1 F1800
G1 X24.784 Y20.165 E8.37036
G1 X23.902 Y20.392 E8.37738
G1 X23.056 Y20.727 E8.38440
G1 X22.258 Y21.166 E8.39141
G1 X21.444 Y21.757 E8.39917
G1 X20.578 Y22.553 F7800.000
G1 F1800
G1 X19.803 Y23.773 E8.41958
G1 X19.402 Y24.618 E8.43279
G1 X19.114 Y25.509 E8.44601
G1 X18.893 Y26.699 E8.46311
G1 X18.889 Y27.874 F7800.000
G1 F1800
G1 X19.121 Y29.090 E8.48059
G1 X19.402 Y29.956 E8.49345
G1 X19.790 Y30.780 E8.50630
G1 X20.578 Y32.021 E8.52707
G1 X21.444 Y32.817 F7800.000
G1 F1800
G1 X22.258 Y33.408 E8.53483
G1 X23.056 Y33.847 E8.54184
G1 X23.902 Y34.182 E8.54886
G1 X24.784 Y34.409 E8.55588
G1 X25.515 Y34.548 E8.56161
G1 E6.56161 F2400.00000
G92 E0
G1 X25.555 Y30.742 F7800.000
G1 E2.00000 F2400.00000
G1 F1800
G1 X25.061 Y30.615 E2.04423
G1 X24.672 Y30.462 E2.08052
G1 X24.107 Y30.154 E2.13635
G1 X23.271 Y29.328 F7800.000
G1 F1800
G1 X23.067 Y28.954 E2.17371
G1 X22.889 Y28.575 E2.21040
G1 X22.770 Y28.210 E2.24408
G1 X22.787 Y28.186 E2.24664
G1 F1800
G1 X22.916 Y28.019 E2.26352
G1 F1800
G1 X23.027 Y27.874 E2.27568
G1 X23.028 Y26.699 F7800.000
G1 F1800
G1 X22.787 Y26.387 E2.30730
G1 F1800
G1 X22.770 Y26.364 E2.30978
G1 X22.889 Y25.999 E2.34346
G1 X23.067 Y25.620 E2.38015
G1 X23.271 Y25.246 E2.41751
G1 X24.107 Y24.420 F7800.000
G1 F1800
G1 X24.672 Y24.112 E2.47334
G1 X25.061 Y23.959 E2.50963
G1 X25.555 Y23.831 E2.55386
G1 X26.730 Y23.831 F7800.000
G1 F1800
G1 X27.224 Y23.959 E2.59809
G1 X27.613 Y24.112 E2.63438
G1 X28.179 Y24.420 E2.69021
G1 X29.015 Y25.246 F7800.000
G1 F1800
G1 X29.219 Y25.620 E2.72721
G1 X29.404 Y26.019 E2.76536
G1 F1800
G1 X29.516 Y26.364 E2.79420
G1 X29.479 Y26.414 E2.79911
G1 F1800
G1 X29.258 Y26.699 E2.82286
G1 X29.258 Y27.874 F7800.000
G1 F1800
G1 X29.481 Y28.163 E2.84718
G1 F1800
G1 X29.516 Y28.210 E2.85184
G1 X29.404 Y28.555 E2.88083
G1 X29.200 Y28.992 E2.91929
G1 F1800
G1 X29.015 Y29.328 E2.95294
G1 X28.179 Y30.154 F7800.000
G1 F1800
G1 X27.613 Y30.462 E3.00877
G1 X27.224 Y30.615 E3.04506
G1 X26.730 Y30.742 E3.08930
G1 Z0.350 F7800.000
G1 Z0.450 F7800.000
G1 X25.093 Y33.921 F7800.000
G1 F900
G1 X24.072 Y33.659 E3.10588
G1 X23.290 Y33.350 E3.11912
G1 X22.553 Y32.944 E3.13236
G1 X22.215 Y32.699 E3.13892
G1 X23.941 Y30.973 E3.17733
G1 X24.312 Y31.177 E3.18399
G1 X24.814 Y31.376 E3.19249
G1 X25.093 Y31.448 E3.19702
G1 X25.093 Y33.861 E3.23501
G1 X25.040 Y34.318 F7800.000
G1 E1.23501 F2400.00000
G92 E0
G1 X20.721 Y31.224 F7800.000
G1 E2.00000 F2400.00000
G1 F900
G1 X20.271 Y30.515 E2.01321
G1 X19.913 Y29.754 E2.02646
G1 X19.653 Y28.953 E2.03970
G1 X19.535 Y28.337 E2.04957
G1 X21.972 Y28.337 E2.08792
G1 X22.145 Y28.870 E2.09674
G1 X22.443 Y29.502 E2.10774
G1 X20.763 Y31.181 E2.14511
G1 X20.420 Y31.487 F7800.000
G1 E0.14511 F2400.00000
G92 E0
G1 X19.535 Y26.237 F7800.000
G1 E2.00000 F2400.00000
G1 F900
G1 X19.653 Y25.621 E2.00987
G1 X19.913 Y24.819 E2.02313
G1 X20.307 Y24.002 E2.03741
G1 X20.721 Y23.350 E2.04957
G1 X22.443 Y25.072 E2.08788
G1 X22.145 Y25.704 E2.09888
G1 X21.972 Y26.237 E2.10770
G1 X19.595 Y26.237 E2.14510
G1 X19.136 Y26.214 F7800.000
G1 E0.14510 F2400.00000
G92 E0
G1 X22.215 Y21.875 F7800.000
G1 E2.00000 F2400.00000
G1 F900
G1 X22.553 Y21.630 E2.00656
G1 X23.290 Y21.224 E2.01980
G1 X24.072 Y20.914 E2.03304
G1 X25.093 Y20.652 E2.04963
G1 X25.093 Y23.126 E2.08856
G1 X24.814 Y23.198 E2.09309
G1 X24.312 Y23.397 E2.10158
G1 X23.941 Y23.600 E2.10824
G1 X22.258 Y21.917 E2.14571
G1 X21.948 Y21.577 F7800.000
G1 X24.257 Y24.685 F7800.000
G1 F900
G1 X24.417 Y24.568 E2.15114
G1 X24.772 Y24.373 E2.16221
G1 X25.148 Y24.225 E2.17328
G1 X25.500 Y24.134 E2.18324
G1 X25.936 Y24.073 E2.19529
G1 X26.345 Y24.073 E2.20649
G1 X26.746 Y24.124 E2.21756
G1 X27.138 Y24.225 E2.22863
G1 X27.514 Y24.373 E2.23970
G1 X27.868 Y24.568 E2.25077
G1 X28.195 Y24.806 E2.26184
G1 X28.490 Y25.083 E2.27291
G1 X28.748 Y25.394 E2.28399
G1 X28.964 Y25.736 E2.29506
G1 X29.137 Y26.102 E2.30613
G1 X29.262 Y26.486 E2.31720
G1 X29.337 Y26.883 E2.32827
G1 X29.363 Y27.287 E2.33934
G1 X29.337 Y27.695 E2.35054
G1 X29.249 Y28.126 E2.36259
G1 X29.137 Y28.472 E2.37255
G1 X28.964 Y28.838 E2.38362
G1 X28.748 Y29.180 E2.39469
G1 X28.490 Y29.491 E2.40576
G1 X28.195 Y29.768 E2.41683
G1 X27.868 Y30.006 E2.42790
G1 X27.514 Y30.200 E2.43897
G1 X27.138 Y30.349 E2.45004
G1 X26.746 Y30.450 E2.46112
G1 X26.345 Y30.501 E2.47219
G1 X25.941 Y30.501 E2.48326
G1 X25.539 Y30.450 E2.49433
G1 X25.148 Y30.349 E2.50540
G1 X24.772 Y30.200 E2.51647
G1 X24.417 Y30.006 E2.52754
G1 X24.090 Y29.768 E2.53861
G1 X23.796 Y29.491 E2.54968
G1 X23.538 Y29.180 E2.56076
G1 X23.321 Y28.838 E2.57183
G1 X23.149 Y28.472 E2.58290
G1 X23.024 Y28.088 E2.59397
G1 X22.948 Y27.690 E2.60504
G1 X22.923 Y27.287 E2.61611
G1 X22.949 Y26.879 E2.62731
G1 X23.037 Y26.448 E2.63936
G1 X23.149 Y26.102 E2.64932
G1 X23.321 Y25.736 E2.66039
G1 X23.538 Y25.394 E2.67146
G1 X23.796 Y25.083 E2.68253
G1 X24.090 Y24.806 E2.69360
G1 X24.209 Y24.720 E2.69760
G1 X24.562 Y25.104 F7800.000
G1 F900
G1 X24.696 Y25.007 E2.70021
G1 X24.993 Y24.844 E2.70555
G1 X25.308 Y24.719 E2.71088
G1 X25.601 Y24.644 E2.71564
G1 X25.972 Y24.592 E2.72153
G1 X26.312 Y24.592 E2.72689
G1 X26.649 Y24.634 E2.73223
G1 X26.977 Y24.719 E2.73756
G1 X27.293 Y24.844 E2.74290
G1 X27.590 Y25.007 E2.74824
G1 X27.864 Y25.206 E2.75358
G1 X28.111 Y25.438 E2.75891
G1 X28.327 Y25.700 E2.76425
G1 X28.509 Y25.986 E2.76959
G1 X28.654 Y26.293 E2.77492
G1 X28.758 Y26.615 E2.78026
G1 X28.822 Y26.948 E2.78560
G1 X28.843 Y27.287 E2.79093
G1 X28.822 Y27.627 E2.79629
G1 X28.747 Y27.994 E2.80219
G1 X28.654 Y28.281 E2.80694
G1 X28.509 Y28.588 E2.81228
G1 X28.327 Y28.874 E2.81762
G1 X28.111 Y29.135 E2.82295
G1 X27.864 Y29.368 E2.82829
G1 X27.590 Y29.567 E2.83363
G1 X27.293 Y29.730 E2.83896
G1 X26.977 Y29.855 E2.84430
G1 X26.649 Y29.939 E2.84964
G1 X26.312 Y29.982 E2.85497
G1 X25.973 Y29.982 E2.86031
G1 X25.637 Y29.939 E2.86565
G1 X25.308 Y29.855 E2.87099
G1 X24.993 Y29.730 E2.87632
G1 X24.696 Y29.567 E2.88166
