; generated by Slic3r 1.3.0-dev on 2017-08-23 at 21:09:50

; external perimeters extrusion width = 0.40mm (1.14mm^3/s)
; perimeters extrusion width = 0.68mm (3.95mm^3/s)
; infill extrusion width = 1.20mm (9.43mm^3/s)
; solid infill extrusion width = 0.68mm (1.32mm^3/s)
; top infill extrusion width = 0.68mm (0.99mm^3/s)
; support material extrusion width = 0.40mm (2.27mm^3/s)

M107
M190 S66 ; set bed temperature and wait for it to be reached
M104 S215 ; set temperature
G28 ; home all axes
G1 Z5 F5000 ; lift nozzle

; Filament gcode

M109 S215 ; set temperature and wait for it to be reached
G21 ; set units to millimeters
G90 ; use absolute coordinates
M82 ; use absolute distances for extrusion
G92 E0
G1 Z0.350 F7800.000
G1 E-2.00000 F2400.00000
G92 E0
G1 X91.061 Y91.340 F7800.000
G1 E2.00000 F2400.00000
G1 F1800
G1 X92.242 Y90.231 E2.14731
G1 X92.883 Y89.701 E2.22297
G1 X94.194 Y88.749 E2.37027
G1 X94.896 Y88.303 E2.44590
G1 X96.316 Y87.522 E2.59321
G1 X97.069 Y87.168 E2.66889
G1 X98.575 Y86.572 E2.81620
G1 X99.366 Y86.315 E2.89182
G1 X100.935 Y85.912 E3.03912
G1 X101.780 Y85.752 E3.11734
G1 X103.360 Y85.553 E3.26210
G1 X104.190 Y85.501 E3.33773
G1 X105.810 Y85.501 E3.48504
G1 X106.640 Y85.553 E3.56066
G1 X108.247 Y85.756 E3.70798
G1 X109.065 Y85.912 E3.78365
G1 X110.634 Y86.315 E3.93096
G1 X111.425 Y86.572 E4.00657
G1 X112.931 Y87.168 E4.15388
G1 X113.684 Y87.522 E4.22957
G1 X115.104 Y88.303 E4.37688
G1 X115.806 Y88.748 E4.45250
G1 X117.117 Y89.701 E4.59981
G1 X117.758 Y90.231 E4.67546
G1 X118.939 Y91.340 E4.82277
G1 X119.508 Y91.947 E4.89843
G1 X120.541 Y93.195 E5.04573
G1 X121.030 Y93.868 E5.12135
G1 X121.898 Y95.235 E5.26866
G1 X122.299 Y95.965 E5.34435
G1 X122.989 Y97.431 E5.49165
G1 X123.295 Y98.204 E5.56729
G1 X123.795 Y99.745 E5.71459
G1 X124.002 Y100.550 E5.79022
G1 X124.306 Y102.142 E5.93753
G1 X124.410 Y102.967 E6.01320
G1 X124.512 Y104.584 E6.16051
G1 X124.512 Y105.416 E6.23614
G1 X124.410 Y107.033 E6.38345
G1 X124.306 Y107.858 E6.45912
G1 X124.002 Y109.450 E6.60643
G1 X123.795 Y110.255 E6.68206
G1 X123.295 Y111.796 E6.82937
G1 X122.989 Y112.569 E6.90500
G1 X122.299 Y114.035 E7.05230
G1 X121.898 Y114.765 E7.12799
G1 X121.030 Y116.132 E7.27530
G1 X120.541 Y116.805 E7.35092
G1 X119.508 Y118.053 E7.49823
G1 X118.939 Y118.660 E7.57388
G1 X117.758 Y119.769 E7.72119
G1 X117.117 Y120.299 E7.79685
G1 X115.806 Y121.252 E7.94415
G1 X115.104 Y121.697 E8.01977
G1 X113.684 Y122.478 E8.16708
G1 X112.931 Y122.832 E8.24277
G1 X111.425 Y123.428 E8.39007
G1 X110.634 Y123.685 E8.46569
G1 X109.065 Y124.088 E8.61300
G1 X108.247 Y124.244 E8.68867
G1 X106.640 Y124.447 E8.83598
G1 X105.810 Y124.499 E8.91161
G1 X104.190 Y124.499 E9.05892
G1 X103.360 Y124.447 E9.13455
G1 X101.753 Y124.244 E9.28186
G1 X100.935 Y124.088 E9.35753
G1 X99.366 Y123.685 E9.50484
G1 X98.575 Y123.428 E9.58046
G1 X97.069 Y122.832 E9.72776
G1 X96.316 Y122.478 E9.80345
G1 X94.896 Y121.697 E9.95076
G1 X94.194 Y121.252 E10.02638
G1 X92.883 Y120.299 E10.17369
G1 X92.242 Y119.769 E10.24934
G1 X91.061 Y118.660 E10.39665
G1 X90.492 Y118.053 E10.47231
G1 X89.459 Y116.805 E10.61961
G1 X88.970 Y116.132 E10.69524
G1 X88.102 Y114.765 E10.84254
G1 X87.701 Y114.035 E10.91823
G1 X87.011 Y112.569 E11.06554
G1 X86.705 Y111.796 E11.14117
G1 X86.213 Y110.282 E11.28590
G1 X85.998 Y109.450 E11.36410
G1 X85.694 Y107.858 E11.51141
G1 X85.590 Y107.033 E11.58708
G1 X85.488 Y105.415 E11.73442
G1 X85.488 Y104.584 E11.81002
G1 X85.588 Y102.996 E11.95475
G1 X85.694 Y102.142 E12.03299
G1 X85.998 Y100.550 E12.18032
G1 X86.205 Y99.745 E12.25593
G1 X86.705 Y98.204 E12.40326
G1 X87.011 Y97.431 E12.47887
G1 X87.689 Y95.990 E12.62359
G1 X88.102 Y95.235 E12.70186
G1 X88.970 Y93.868 E12.84917
G1 X89.459 Y93.195 E12.92479
G1 X90.492 Y91.946 E13.07210
G1 X91.020 Y91.384 E13.14229
G1 E11.14229 F2400.00000
G92 E0
G1 X109.631 Y109.349 F7800.000
G1 E2.00000 F2400.00000
G1 F1800
G1 X109.050 Y109.895 E2.07254
G1 X108.404 Y110.364 E2.14509
G1 X107.705 Y110.748 E2.21763
G1 X106.963 Y111.042 E2.29018
G1 X106.190 Y111.240 E2.36272
G1 X105.399 Y111.340 E2.43527
G1 X104.601 Y111.340 E2.50781
G1 X103.810 Y111.240 E2.58036
G1 X103.037 Y111.042 E2.65290
G1 X102.295 Y110.748 E2.72544
G1 X101.596 Y110.364 E2.79799
G1 X100.950 Y109.895 E2.87053
G1 X100.369 Y109.349 E2.94308
G1 X99.860 Y108.734 E3.01562
G1 X99.433 Y108.061 E3.08814
G1 X99.094 Y107.340 E3.16056
G1 X98.847 Y106.580 E3.23326
G1 X98.697 Y105.796 E3.30580
G1 X98.647 Y105.000 E3.37834
G1 X98.697 Y104.204 E3.45089
G1 X98.847 Y103.420 E3.52343
G1 X99.095 Y102.656 E3.59648
G1 X99.454 Y101.905 E3.67217
G1 X99.860 Y101.266 E3.74104
G1 X100.369 Y100.651 E3.81359
G1 X100.950 Y100.105 E3.88613
G1 X101.563 Y99.660 E3.95501
G1 X102.290 Y99.254 E4.03069
G1 X103.037 Y98.958 E4.10374
G1 X103.810 Y98.760 E4.17629
G1 X104.601 Y98.660 E4.24883
G1 X105.399 Y98.660 E4.32138
G1 X106.190 Y98.760 E4.39392
G1 X106.963 Y98.958 E4.46646
G1 X107.705 Y99.252 E4.53901
G1 X108.404 Y99.636 E4.61155
G1 X109.050 Y100.105 E4.68410
G1 X109.631 Y100.651 E4.75664
G1 X110.140 Y101.266 E4.82919
G1 X110.567 Y101.939 E4.90173
G1 X110.907 Y102.661 E4.97428
G1 X111.153 Y103.420 E5.04682
G1 X111.303 Y104.204 E5.11936
G1 X111.353 Y105.000 E5.19191
G1 X111.303 Y105.796 E5.26445
G1 X111.153 Y106.580 E5.33700
G1 X110.907 Y107.339 E5.40954
G1 X110.567 Y108.061 E5.48209
G1 X110.140 Y108.734 E5.55463
G1 X109.669 Y109.303 E5.62172
G1 X109.175 Y108.920 F7800.000
G1 F1800
G1 X108.650 Y109.413 E5.68711
G1 X108.069 Y109.835 E5.75251
G1 X107.438 Y110.182 E5.81790
G1 X106.770 Y110.447 E5.88330
G1 X106.073 Y110.625 E5.94869
G1 X105.360 Y110.716 E6.01409
G1 X104.640 Y110.716 E6.07948
G1 X103.927 Y110.625 E6.14488
G1 X103.230 Y110.447 E6.21027
G1 X102.562 Y110.182 E6.27567
G1 X101.931 Y109.835 E6.34106
G1 X101.350 Y109.413 E6.40646
G1 X100.825 Y108.920 E6.47185
G1 X100.367 Y108.366 E6.53725
G1 X99.982 Y107.759 E6.60263
G1 X99.676 Y107.110 E6.66789
G1 X99.453 Y106.424 E6.73343
G1 X99.318 Y105.718 E6.79883
G1 X99.273 Y105.000 E6.86422
G1 X99.318 Y104.282 E6.92961
G1 X99.453 Y103.576 E6.99501
G1 X99.676 Y102.889 E7.06071
G1 X100.002 Y102.209 E7.12925
G1 X100.367 Y101.634 E7.19117
G1 X100.825 Y101.080 E7.25657
G1 X101.350 Y100.587 E7.32196
G1 X101.901 Y100.187 E7.38388
G1 X102.558 Y99.819 E7.45242
G1 X103.230 Y99.553 E7.51812
G1 X103.927 Y99.375 E7.58351
G1 X104.640 Y99.284 E7.64891
G1 X105.360 Y99.284 E7.71431
G1 X106.073 Y99.375 E7.77970
G1 X106.770 Y99.553 E7.84509
G1 X107.438 Y99.818 E7.91049
G1 X108.069 Y100.165 E7.97588
G1 X108.650 Y100.587 E8.04128
G1 X109.175 Y101.080 E8.10667
G1 X109.633 Y101.634 E8.17207
G1 X110.018 Y102.241 E8.23746
G1 X110.325 Y102.892 E8.30286
G1 X110.547 Y103.576 E8.36825
G1 X110.682 Y104.282 E8.43365
G1 X110.727 Y105.000 E8.49904
G1 X110.682 Y105.718 E8.56444
G1 X110.547 Y106.424 E8.62983
G1 X110.325 Y107.108 E8.69522
G1 X110.018 Y107.759 E8.76062
G1 X109.633 Y108.366 E8.82601
G1 X109.213 Y108.874 E8.88595
G1 X108.718 Y108.492 F7800.000
G1 F1800
G1 X108.251 Y108.930 E8.94420
G1 X107.733 Y109.307 E9.00244
G1 X107.172 Y109.615 E9.06069
G1 X106.576 Y109.851 E9.11893
G1 X105.956 Y110.010 E9.17718
G1 X105.320 Y110.091 E9.23542
G1 X104.680 Y110.091 E9.29367
G1 X104.044 Y110.010 E9.35191
G1 X103.424 Y109.851 E9.41016
G1 X102.828 Y109.615 E9.46840
G1 X102.267 Y109.307 E9.52665
G1 X101.749 Y108.930 E9.58489
G1 X101.282 Y108.492 E9.64314
G1 X100.873 Y107.998 E9.70138
G1 X100.530 Y107.457 E9.75962
G1 X100.258 Y106.879 E9.81774
G1 X100.060 Y106.268 E9.87612
G1 X99.940 Y105.639 E9.93436
G1 X99.899 Y105.000 E9.99261
G1 X99.940 Y104.361 E10.05085
G1 X100.060 Y103.732 E10.10910
G1 X100.258 Y103.121 E10.16745
G1 X100.550 Y102.512 E10.22884
G1 X100.873 Y102.002 E10.28381
G1 X101.282 Y101.508 E10.34205
G1 X101.749 Y101.070 E10.40030
G1 X102.238 Y100.715 E10.45527
G1 X102.827 Y100.385 E10.51666
G1 X103.424 Y100.149 E10.57501
G1 X104.044 Y99.990 E10.63326
G1 X104.680 Y99.909 E10.69150
G1 X105.320 Y99.909 E10.74975
G1 X105.956 Y99.990 E10.80799
G1 X106.576 Y100.149 E10.86624
G1 X107.172 Y100.385 E10.92448
G1 X107.733 Y100.693 E10.98273
G1 X108.251 Y101.070 E11.04097
G1 X108.718 Y101.508 E11.09922
G1 X109.127 Y102.002 E11.15746
G1 X109.470 Y102.543 E11.21571
G1 X109.743 Y103.122 E11.27395
G1 X109.940 Y103.732 E11.33219
G1 X110.060 Y104.361 E11.39044
G1 X110.101 Y105.000 E11.44869
G1 X110.060 Y105.639 E11.50693
G1 X109.940 Y106.268 E11.56517
G1 X109.743 Y106.878 E11.62342
G1 X109.470 Y107.457 E11.68166
G1 X109.127 Y107.998 E11.73991
G1 X108.756 Y108.445 E11.79270
G1 X108.718 Y108.492 F7800.000
G1 E9.79270 F2400.00000
G92 E0
G1 X113.483 Y112.434 F7800.000
G1 E2.00000 F2400.00000
G1 F1800
G1 X113.235 Y112.733 E2.03539
G1 X112.201 Y113.705 E2.16438
G1 X111.053 Y114.538 E2.29339
G1 X109.810 Y115.222 E2.42239
G1 X108.491 Y115.744 E2.55139
G1 X107.117 Y116.097 E2.68039
G1 X105.709 Y116.275 E2.80939
G1 X104.291 Y116.275 E2.93840
G1 X102.883 Y116.097 E3.06740
G1 X101.509 Y115.744 E3.19640
G1 X100.190 Y115.222 E3.32540
G1 X98.947 Y114.538 E3.45440
G1 X97.799 Y113.705 E3.58340
G1 X96.765 Y112.733 E3.71240
G1 X95.860 Y111.640 E3.84140
G1 X95.100 Y110.442 E3.97041
G1 X94.496 Y109.159 E4.09940
G1 X94.058 Y107.809 E4.22841
G1 X93.792 Y106.416 E4.35741
G1 X93.703 Y105.000 E4.48641
G1 X93.792 Y103.584 E4.61541
G1 X94.058 Y102.191 E4.74441
G1 X94.496 Y100.841 E4.87342
G1 X95.100 Y99.558 E5.00242
G1 X95.860 Y98.360 E5.13142
G1 X96.765 Y97.267 E5.26042
G1 X97.799 Y96.295 E5.38942
G1 X98.947 Y95.462 E5.51842
G1 X100.190 Y94.778 E5.64743
G1 X101.509 Y94.256 E5.77642
G1 X102.883 Y93.903 E5.90543
G1 X104.289 Y93.725 E6.03427
G1 X105.736 Y93.729 E6.16583
G1 X107.117 Y93.903 E6.29241
G1 X108.491 Y94.256 E6.42141
G1 X109.810 Y94.778 E6.55041
G1 X111.053 Y95.462 E6.67942
G1 X112.201 Y96.295 E6.80842
G1 X113.235 Y97.267 E6.93742
G1 X114.140 Y98.360 E7.06642
G1 X114.900 Y99.558 E7.19542
G1 X115.504 Y100.841 E7.32442
G1 X115.942 Y102.191 E7.45343
G1 X116.208 Y103.584 E7.58243
G1 X116.297 Y105.000 E7.71143
G1 X116.208 Y106.416 E7.84043
G1 X115.942 Y107.809 E7.96943
G1 X115.504 Y109.159 E8.09843
G1 X114.900 Y110.442 E8.22743
G1 X114.140 Y111.640 E8.35643
G1 X113.521 Y112.387 E8.44460
G1 X113.965 Y112.832 F7800.000
G1 F1800
G1 X113.692 Y113.162 E8.48356
G1 X112.600 Y114.187 E8.61971
G1 X111.389 Y115.067 E8.75586
G1 X110.077 Y115.788 E8.89201
G1 X108.684 Y116.340 E9.02816
G1 X107.234 Y116.712 E9.16431
G1 X105.749 Y116.900 E9.30046
G1 X104.251 Y116.900 E9.43661
G1 X102.766 Y116.712 E9.57276
G1 X101.316 Y116.340 E9.70892
G1 X99.923 Y115.788 E9.84507
G1 X98.611 Y115.067 E9.98122
G1 X97.400 Y114.187 E10.11737
G1 X96.308 Y113.162 E10.25352
G1 X95.354 Y112.008 E10.38967
G1 X94.552 Y110.744 E10.52582
G1 X93.914 Y109.389 E10.66197
G1 X93.451 Y107.965 E10.79813
G1 X93.171 Y106.494 E10.93428
G1 X93.077 Y105.000 E11.07043
G1 X93.171 Y103.506 E11.20658
G1 X93.451 Y102.035 E11.34273
G1 X93.914 Y100.611 E11.47888
G1 X94.552 Y99.256 E11.61503
G1 X95.354 Y97.992 E11.75118
G1 X96.308 Y96.838 E11.88733
G1 X97.400 Y95.813 E12.02349
G1 X98.611 Y94.933 E12.15964
G1 X99.923 Y94.212 E12.29579
G1 X101.316 Y93.660 E12.43194
G1 X102.766 Y93.288 E12.56809
G1 X104.250 Y93.101 E12.70414
G1 X105.776 Y93.104 E12.84286
G1 X107.234 Y93.288 E12.97652
G1 X108.684 Y93.660 E13.11268
G1 X110.077 Y94.212 E13.24882
G1 X111.389 Y94.933 E13.38498
G1 X112.600 Y95.813 E13.52113
G1 X113.692 Y96.838 E13.65728
G1 X114.646 Y97.992 E13.79343
G1 X115.448 Y99.256 E13.92958
G1 X116.086 Y100.611 E14.06573
G1 X116.549 Y102.035 E14.20188
G1 X116.829 Y103.506 E14.33804
G1 X116.923 Y105.000 E14.47419
G1 X116.829 Y106.494 E14.61034
G1 X116.549 Y107.965 E14.74649
G1 X116.086 Y109.389 E14.88264
G1 X115.448 Y110.744 E15.01879
G1 X114.646 Y112.008 E15.15494
G1 X114.003 Y112.786 E15.24668
G1 X114.446 Y113.230 F7800.000
G1 F1800
G1 X114.148 Y113.591 E15.28921
G1 X112.999 Y114.669 E15.43251
G1 X111.724 Y115.596 E15.57581
G1 X110.343 Y116.355 E15.71912
G1 X108.878 Y116.935 E15.86242
G1 X107.352 Y117.327 E16.00572
G1 X105.788 Y117.525 E16.14902
G1 X104.212 Y117.525 E16.29232
G1 X102.648 Y117.327 E16.43562
G1 X101.122 Y116.935 E16.57892
G1 X99.657 Y116.355 E16.72222
G1 X98.276 Y115.596 E16.86552
G1 X97.001 Y114.669 E17.00882
G1 X95.852 Y113.591 E17.15212
G1 X94.847 Y112.376 E17.29542
G1 X94.003 Y111.046 E17.43873
G1 X93.332 Y109.620 E17.58203
G1 X92.845 Y108.121 E17.72533
G1 X92.550 Y106.573 E17.86863
G1 X92.451 Y105.000 E18.01193
G1 X92.550 Y103.427 E18.15523
G1 X92.845 Y101.879 E18.29853
G1 X93.332 Y100.380 E18.44183
G1 X94.003 Y98.954 E18.58513
G1 X94.847 Y97.624 E18.72844
G1 X95.852 Y96.409 E18.87174
G1 X97.001 Y95.331 E19.01504
G1 X98.276 Y94.404 E19.15834
G1 X99.657 Y93.645 E19.30164
G1 X101.122 Y93.065 E19.44494
G1 X102.648 Y92.673 E19.58824
G1 X104.212 Y92.476 E19.73151
G1 X105.816 Y92.479 E19.87737
G1 X107.352 Y92.673 E20.01812
G1 X108.878 Y93.065 E20.16142
G1 X110.343 Y93.645 E20.30472
G1 X111.724 Y94.404 E20.44803
G1 X112.999 Y95.331 E20.59133
G1 X114.148 Y96.409 E20.73463
G1 X115.153 Y97.624 E20.87793
G1 X115.997 Y98.954 E21.02123
G1 X116.668 Y100.380 E21.16453
G1 X117.155 Y101.879 E21.30783
G1 X117.450 Y103.427 E21.45113
G1 X117.549 Y105.000 E21.59443
G1 X117.450 Y106.573 E21.73773
G1 X117.155 Y108.121 E21.88103
G1 X116.668 Y109.620 E22.02434
G1 X115.997 Y111.046 E22.16763
G1 X115.153 Y112.376 E22.31094
G1 X114.484 Y113.184 E22.40625
G1 X114.050 Y113.173 F7800.000
G1 E20.40625 F2400.00000
G92 E0
G1 X112.533 Y112.550 F7800.000
G1 E2.00000 F2400.00000
G1 F1800
G1 X113.022 Y112.061 E2.06314
G1 X113.876 Y111.029 E2.18538
G1 X114.594 Y109.898 E2.30772
G1 X114.857 Y109.339 E2.36406
G1 X109.296 Y114.900 E3.08202
G1 X108.054 Y115.392 E3.20391
G1 X107.870 Y115.439 E3.22132
G1 X115.425 Y107.884 E4.19675
G1 X115.579 Y107.411 E4.24218
G1 X115.713 Y106.709 E4.30739
G1 X106.688 Y115.734 E5.47252
G1 X105.673 Y115.862 E5.56597
G1 X115.856 Y105.678 E6.88074
G1 X115.913 Y104.735 E6.96706
G1 X104.754 Y115.893 E8.40769
G1 X104.087 Y115.893 E8.46861
G1 X103.892 Y115.868 E8.48658
G1 X109.450 Y110.310 E9.20415
G1 X108.983 Y110.650 E9.25685
G1 X108.215 Y111.072 E9.33687
G1 X107.530 Y111.343 E9.40412
G1 X103.104 Y115.769 E9.97552
G1 X102.757 Y115.725 E10.00740
G1 X102.362 Y115.623 E10.04467
G1 X106.347 Y111.638 E10.55921
G1 X105.681 Y111.722 E10.62049
G1 X105.376 Y111.722 E10.64837
G1 X101.656 Y115.442 E11.12864
G1 X101.459 Y115.392 E11.14716
G1 X101.001 Y115.210 E11.19220
G1 X104.524 Y111.687 E11.64708
G1 X103.935 Y111.612 E11.70126
G1 X103.757 Y111.567 E11.71807
G1 X100.365 Y114.958 E12.15598
G1 X100.214 Y114.898 E12.17087
G1 X99.778 Y114.659 E12.21628
G1 X103.054 Y111.382 E12.63936
G1 X102.419 Y111.130 E12.70177
G1 X99.205 Y114.344 E13.11670
G1 X99.039 Y114.253 E13.13398
G1 X98.674 Y113.988 E13.17517
G1 X101.832 Y110.830 E13.58284
G1 X101.503 Y110.650 E13.61704
G1 X101.284 Y110.490 E13.64177
G1 X98.160 Y113.614 E14.04510
G1 X97.955 Y113.465 E14.06826
G1 X97.680 Y113.207 E14.10268
G1 X100.773 Y110.114 E14.50198
G1 X100.315 Y109.685 E14.55928
G1 X97.223 Y112.777 E14.95858
G1 X96.978 Y112.548 E14.98920
G1 X96.791 Y112.322 E15.01599
G1 X99.894 Y109.219 E15.41663
G1 X99.597 Y108.859 E15.45921
G1 X99.507 Y108.718 E15.47446
G1 X96.389 Y111.836 E15.87701
G1 X96.124 Y111.515 E15.91502
G1 X96.007 Y111.331 E15.93493
G1 X99.163 Y108.175 E16.34237
G1 X98.873 Y107.578 E16.40297
G1 X95.663 Y110.788 E16.81740
G1 X95.406 Y110.384 E16.86114
G1 X95.334 Y110.230 E16.87665
G1 X98.627 Y106.936 E17.30190
G1 X98.483 Y106.493 E17.34450
G1 X98.435 Y106.241 E17.36786
G1 X95.050 Y109.627 E17.80497
G1 X94.835 Y109.171 E17.85092
G1 X94.782 Y109.007 E17.86668
G1 X98.309 Y105.480 E18.32209
G1 X98.264 Y104.757 E18.38821
G1 X98.272 Y104.630 E18.39982
G1 X94.564 Y108.337 E18.87849
G1 X94.421 Y107.897 E18.92079
G1 X94.373 Y107.642 E18.94447
G1 X98.363 Y103.652 E19.45965
G1 X98.483 Y103.021 E19.51823
G1 X98.665 Y102.463 E19.57187
G1 X94.231 Y106.897 E20.14436
G1 X94.170 Y106.580 E20.17377
G1 X94.140 Y106.100 E20.21770
G1 X99.652 Y100.588 E20.92933
G1 E18.92933 F2400.00000
G92 E0
G1 X97.467 Y97.449 F7800.000
G1 E2.00000 F2400.00000
G1 F1800
G1 X96.977 Y97.939 E2.06327
G1 X96.124 Y98.971 E2.18548
G1 X95.406 Y100.102 E2.30782
