; generated by Slic3r 1.3.0-dev on 2017-08-23 at 22:51:05

; external perimeters extrusion width = 0.40mm (1.14mm^3/s)
; perimeters extrusion width = 0.68mm (3.95mm^3/s)
; infill extrusion width = 1.20mm (9.43mm^3/s)
; solid infill extrusion width = 0.68mm (1.32mm^3/s)
; top infill extrusion width = 0.68mm (0.99mm^3/s)
; support material extrusion width = 0.40mm (2.27mm^3/s)

M107
M190 S66 ; set bed temperature and wait for it to be reached
M104 S215 ; set temperature
G28 ; home all axes
G1 Z5 F5000 ; lift nozzle

; Filament gcode

M109 S215 ; set temperature and wait for it to be reached
G21 ; set units to millimeters
G90 ; use absolute coordinates
M82 ; use absolute distances for extrusion
G92 E0
G1 Z0.350 F7800.000
G1 E-2.00000 F2400.00000
G92 E0
G1 X92.608 Y89.780 F7800.000
G1 E2.00000 F2400.00000
G1 F1800
G1 X94.757 Y88.343 E2.23505
G1 X100.465 Y85.979 E2.79678
G1 X103.000 Y85.475 E3.03182
G1 X107.000 Y85.475 E3.39554
G1 X109.535 Y85.979 E3.63059
G1 X115.243 Y88.343 E4.19232
G1 X117.392 Y89.780 E4.42737
G1 X120.220 Y92.608 E4.79109
G1 X121.657 Y94.757 E5.02613
G1 X124.021 Y100.465 E5.58787
G1 X124.525 Y103.000 E5.82291
G1 X124.525 Y107.000 E6.18663
G1 X124.021 Y109.535 E6.42167
G1 X121.656 Y115.243 E6.98341
G1 X120.220 Y117.392 E7.21846
G1 X117.392 Y120.220 E7.58218
G1 X115.243 Y121.657 E7.81722
G1 X109.535 Y124.021 E8.37896
G1 X107.000 Y124.525 E8.61400
G1 X103.000 Y124.525 E8.97772
G1 X100.465 Y124.021 E9.21276
G1 X94.757 Y121.657 E9.77450
G1 X92.608 Y120.220 E10.00954
G1 X89.780 Y117.392 E10.37326
G1 X88.343 Y115.243 E10.60831
G1 X85.979 Y109.535 E11.17004
G1 X85.475 Y107.000 E11.40509
G1 X85.475 Y103.000 E11.76881
G1 X85.979 Y100.465 E12.00385
G1 X88.343 Y94.757 E12.56559
G1 X89.780 Y92.608 E12.80063
G1 X92.566 Y89.822 E13.15890
G1 E11.15890 F2400.00000
G92 E0
G1 X103.350 Y114.211 F7800.000
G1 E2.00000 F2400.00000
G1 F1800
G1 X102.110 Y113.893 E2.11636
G1 X101.019 Y113.461 E2.22314
G1 X99.634 Y112.700 E2.36682
G1 X101.619 Y110.714 E2.62211
G1 X102.169 Y111.016 E2.67915
G1 X102.945 Y111.324 E2.75508
G1 X103.350 Y111.428 E2.79308
G1 X103.350 Y114.151 E3.04072
G1 X103.302 Y114.608 F7800.000
G1 E1.04072 F2400.00000
G92 E0
G1 X100.711 Y109.855 F7800.000
G1 E2.00000 F2400.00000
G1 F1800
G1 X97.293 Y113.273 E2.43960
G1 X96.727 Y112.707 E2.51238
G1 X100.145 Y109.289 E2.95194
G1 X100.270 Y109.441 E2.96988
G1 X100.667 Y109.814 E3.01937
G1 X101.651 Y109.798 F7800.000
G1 F1800
G1 X97.293 Y114.157 E3.57989
G1 X95.843 Y112.707 E3.76632
G1 X100.188 Y108.362 E4.32514
G1 X100.727 Y109.013 E4.40195
G1 X101.264 Y109.517 E4.46889
G1 X101.603 Y109.763 E4.50702
G1 E2.50702 F2400.00000
G92 E0
G1 X98.537 Y105.400 F7800.000
G1 E2.00000 F2400.00000
G1 F1800
G1 X93.700 Y105.400 E2.43987
G1 X93.700 Y104.600 E2.51265
G1 X98.537 Y104.600 E2.95252
G1 X98.512 Y105.000 E2.98898
G1 X98.533 Y105.340 E3.01999
G1 X99.240 Y106.025 F7800.000
G1 F1800
G1 X93.075 Y106.025 E3.58057
G1 X93.075 Y103.975 E3.76699
G1 X99.240 Y103.975 E4.32757
G1 X99.184 Y104.265 E4.35445
G1 X99.138 Y105.000 E4.42139
G1 X99.184 Y105.735 E4.48832
G1 X99.229 Y105.966 E4.50975
G1 X98.558 Y106.650 F7800.000
G1 F1800
G1 X98.818 Y107.448 E4.58603
G1 X99.266 Y108.401 E4.68178
G1 X97.332 Y110.334 E4.93043
G1 X96.806 Y109.505 E5.01976
G1 X96.306 Y108.442 E5.12654
G1 X95.943 Y107.325 E5.23331
G1 X95.814 Y106.650 E5.29584
G1 X98.498 Y106.650 E5.53991
G1 X98.941 Y106.534 F7800.000
G1 E3.53991 F2400.00000
G92 E0
G1 X98.558 Y103.350 F7800.000
G1 E2.00000 F2400.00000
G1 F1800
G1 X95.814 Y103.350 E2.24953
G1 X95.943 Y102.675 E2.31205
G1 X96.306 Y101.557 E2.41886
G1 X96.816 Y100.480 E2.52729
G1 X97.332 Y99.666 E2.61492
G1 X99.266 Y101.599 E2.86357
G1 X98.818 Y102.552 E2.95933
G1 X98.577 Y103.293 E3.03014
G1 X98.507 Y103.747 F7800.000
G1 E1.03014 F2400.00000
G92 E0
G1 X100.145 Y100.711 F7800.000
G1 E2.00000 F2400.00000
G1 F1800
G1 X96.727 Y97.293 E2.43956
G1 X97.293 Y96.727 E2.51234
G1 X100.711 Y100.145 E2.95194
G1 X100.270 Y100.559 E3.00689
G1 X100.183 Y100.664 E3.01937
G1 X100.188 Y101.638 F7800.000
G1 F1800
G1 X95.843 Y97.293 E3.57820
G1 X97.293 Y95.843 E3.76462
G1 X101.651 Y100.202 E4.32514
G1 X101.264 Y100.483 E4.36873
G1 X100.727 Y100.987 E4.43567
G1 X100.227 Y101.592 E4.50702
G1 E2.50702 F2400.00000
G92 E0
G1 X101.619 Y99.286 F7800.000
G1 E2.00000 F2400.00000
G1 F1800
G1 X99.634 Y97.300 E2.25529
G1 X101.019 Y96.539 E2.39897
G1 X102.110 Y96.107 E2.50575
G1 X103.350 Y95.789 E2.62211
G1 X103.350 Y98.572 E2.87522
G1 X102.945 Y98.676 E2.91321
G1 X102.169 Y98.984 E2.98914
G1 X101.672 Y99.257 E3.04072
G1 X101.305 Y99.533 F7800.000
G1 X102.299 Y100.522 F7800.000
G1 F1800
G1 X102.771 Y100.263 E3.08969
G1 X103.382 Y100.021 E3.14948
G1 X104.019 Y99.857 E3.20926
G1 X104.707 Y99.770 E3.27237
G1 X105.330 Y99.775 E3.32898
G1 X105.981 Y99.857 E3.38865
G1 X106.618 Y100.021 E3.44844
G1 X107.229 Y100.263 E3.50822
G1 X107.805 Y100.579 E3.56801
G1 X108.337 Y100.966 E3.62780
G1 X108.817 Y101.416 E3.68758
G1 X109.236 Y101.923 E3.74737
G1 X109.588 Y102.478 E3.80716
G1 X109.868 Y103.073 E3.86701
G1 X110.075 Y103.720 E3.92873
G1 X110.194 Y104.344 E3.98650
G1 X110.236 Y105.000 E4.04629
G1 X110.194 Y105.656 E4.10607
G1 X110.071 Y106.302 E4.16586
G1 X109.868 Y106.927 E4.22565
G1 X109.588 Y107.522 E4.28543
G1 X109.236 Y108.077 E4.34522
G1 X108.817 Y108.584 E4.40501
G1 X108.337 Y109.034 E4.46479
G1 X107.805 Y109.421 E4.52458
G1 X107.229 Y109.737 E4.58437
G1 X106.618 Y109.979 E4.64415
G1 X105.981 Y110.143 E4.70394
G1 X105.329 Y110.225 E4.76373
G1 X104.671 Y110.225 E4.82351
G1 X104.019 Y110.143 E4.88330
G1 X103.382 Y109.979 E4.94308
G1 X102.771 Y109.737 E5.00287
G1 X102.195 Y109.421 E5.06266
G1 X101.663 Y109.034 E5.12244
G1 X101.183 Y108.584 E5.18223
G1 X100.764 Y108.077 E5.24202
G1 X100.412 Y107.522 E5.30180
G1 X100.132 Y106.927 E5.36166
G1 X99.925 Y106.280 E5.42338
G1 X99.806 Y105.656 E5.48115
G1 X99.764 Y105.000 E5.54094
G1 X99.806 Y104.344 E5.60072
G1 X99.929 Y103.698 E5.66051
G1 X100.132 Y103.073 E5.72029
G1 X100.412 Y102.478 E5.78008
G1 X100.764 Y101.923 E5.83987
G1 X101.183 Y101.416 E5.89965
G1 X101.663 Y100.966 E5.95944
G1 X102.246 Y100.551 E6.02455
G1 X102.293 Y100.122 F7800.000
G1 E4.02455 F2400.00000
G92 E0
G1 X104.600 Y98.519 F7800.000
G1 E2.00000 F2400.00000
G1 F1800
G1 X104.600 Y93.700 E2.43825
G1 X105.400 Y93.700 E2.51103
G1 X105.400 Y98.526 E2.94984
G1 X104.660 Y98.520 E3.01717
G1 X103.975 Y99.233 F7800.000
G1 F1800
G1 X103.975 Y93.075 E3.57710
G1 X106.025 Y93.075 E3.76353
G1 X106.025 Y99.233 E4.32346
G1 X105.372 Y99.150 E4.38334
G1 X104.670 Y99.145 E4.44711
G1 X104.034 Y99.225 E4.50540
G1 E2.50540 F2400.00000
G92 E0
G1 X106.650 Y98.572 F7800.000
G1 E2.00000 F2400.00000
G1 F1800
G1 X106.650 Y95.789 E2.25310
G1 X107.890 Y96.107 E2.36947
G1 X108.981 Y96.539 E2.47624
G1 X110.366 Y97.300 E2.61993
G1 X108.381 Y99.286 E2.87521
G1 X107.831 Y98.984 E2.93225
G1 X107.055 Y98.676 E3.00818
G1 X106.708 Y98.587 E3.04072
G1 X106.252 Y98.528 F7800.000
G1 E1.04072 F2400.00000
G92 E0
G1 X110.734 Y101.599 F7800.000
G1 E2.00000 F2400.00000
G1 F1800
G1 X112.668 Y99.666 E2.24866
G1 X113.194 Y100.495 E2.33799
G1 X113.694 Y101.558 E2.44476
G1 X114.057 Y102.675 E2.55154
G1 X114.186 Y103.350 E2.61406
G1 X111.442 Y103.350 E2.86359
G1 X111.182 Y102.552 E2.93986
G1 X110.760 Y101.654 E3.03016
G1 X110.491 Y101.281 F7800.000
G1 X109.855 Y100.711 F7800.000
G1 F1800
G1 X109.730 Y100.559 E3.04810
G1 X109.289 Y100.145 E3.10305
G1 X112.707 Y96.727 E3.54264
G1 X113.273 Y97.293 E3.61543
G1 X109.898 Y100.668 E4.04953
G1 X109.812 Y101.638 F7800.000
G1 F1800
G1 X109.273 Y100.987 E4.12634
G1 X108.736 Y100.483 E4.19328
G1 X108.349 Y100.202 E4.23687
G1 X112.707 Y95.843 E4.79738
G1 X114.157 Y97.293 E4.98381
G1 X109.854 Y101.596 E5.53718
G1 E3.53718 F2400.00000
G92 E0
G1 X111.463 Y104.600 F7800.000
G1 E2.00000 F2400.00000
G1 F1800
G1 X116.300 Y104.600 E2.43987
G1 X116.300 Y105.400 E2.51265
G1 X111.463 Y105.400 E2.95252
G1 X111.488 Y105.000 E2.98899
G1 X111.467 Y104.660 E3.01999
G1 X110.760 Y103.975 F7800.000
G1 F1800
G1 X116.925 Y103.975 E3.58057
G1 X116.925 Y106.025 E3.76699
G1 X110.760 Y106.025 E4.32757
G1 X110.816 Y105.735 E4.35445
G1 X110.862 Y105.000 E4.42139
G1 X110.816 Y104.265 E4.48833
G1 X110.771 Y104.034 E4.50975
G1 E2.50975 F2400.00000
G92 E0
G1 X111.442 Y106.650 F7800.000
G1 E2.00000 F2400.00000
G1 F1800
G1 X114.186 Y106.650 E2.24953
G1 X114.057 Y107.325 E2.31205
G1 X113.694 Y108.442 E2.41883
G1 X113.194 Y109.505 E2.52560
G1 X112.668 Y110.334 E2.61493
G1 X110.734 Y108.401 E2.86359
G1 X111.182 Y107.448 E2.95934
G1 X111.423 Y106.707 E3.03016
G1 X111.493 Y106.253 F7800.000
G1 E1.03016 F2400.00000
G92 E0
G1 X109.855 Y109.289 F7800.000
G1 E2.00000 F2400.00000
G1 F1800
G1 X113.273 Y112.707 E2.43956
G1 X112.707 Y113.273 E2.51234
G1 X109.289 Y109.855 E2.95194
G1 X109.730 Y109.441 E3.00689
G1 X109.817 Y109.336 E3.01937
G1 X109.812 Y108.362 F7800.000
G1 F1800
G1 X114.157 Y112.707 E3.57820
G1 X112.707 Y114.157 E3.76462
G1 X108.349 Y109.798 E4.32514
G1 X108.736 Y109.517 E4.36873
G1 X109.273 Y109.013 E4.43567
G1 X109.773 Y108.408 E4.50702
G1 E2.50702 F2400.00000
G92 E0
G1 X108.381 Y110.714 F7800.000
G1 E2.00000 F2400.00000
G1 F1800
G1 X110.366 Y112.700 E2.25529
G1 X108.981 Y113.461 E2.39897
G1 X107.890 Y113.893 E2.50575
G1 X106.650 Y114.211 E2.62211
G1 X106.650 Y111.428 E2.87522
G1 X107.055 Y111.324 E2.91321
G1 X107.831 Y111.016 E2.98914
G1 X108.328 Y110.743 E3.04072
G1 X108.695 Y110.467 F7800.000
G1 E1.04072 F2400.00000
G92 E0
G1 X105.400 Y111.475 F7800.000
G1 E2.00000 F2400.00000
G1 F1800
G1 X105.400 Y116.300 E2.43874
G1 X104.600 Y116.300 E2.51153
G1 X104.600 Y111.475 E2.95027
G1 X105.340 Y111.475 E3.01760
G1 X106.025 Y110.767 F7800.000
G1 F1800
G1 X106.025 Y116.925 E3.57753
G1 X103.975 Y116.925 E3.76396
G1 X103.975 Y110.767 E4.32389
G1 X104.632 Y110.850 E4.38411
G1 X105.368 Y110.850 E4.45105
G1 X105.966 Y110.775 E4.50581
G1 E2.50581 F2400.00000
G92 E0
G1 X106.650 Y115.540 F7800.000
G1 E2.00000 F2400.00000
G1 F1800
G1 X106.650 Y117.550 E2.18278
G1 X103.350 Y117.550 E2.48284
G1 X103.350 Y115.540 E2.66562
G1 X101.708 Y115.128 E2.81953
G1 X100.466 Y114.636 E2.94105
G1 X99.294 Y113.992 E3.06266
G1 X98.742 Y113.591 E3.12462
G1 X97.293 Y115.041 E3.31108
G1 X94.959 Y112.707 E3.61115
G1 X96.393 Y111.273 E3.79557
G1 X95.668 Y110.130 E3.91866
G1 X95.099 Y108.920 E4.04027
G1 X94.685 Y107.648 E4.16187
G1 X94.495 Y106.650 E4.25429
G1 X92.450 Y106.650 E4.44023
G1 X92.450 Y103.350 E4.74030
G1 X94.495 Y103.350 E4.92623
G1 X94.685 Y102.352 E5.01865
G1 X95.099 Y101.080 E5.14026
G1 X95.668 Y99.870 E5.26186
G1 X96.393 Y98.727 E5.38495
G1 X94.959 Y97.293 E5.56938
G1 X97.293 Y94.959 E5.86945
G1 X98.742 Y96.409 E6.05590
G1 X99.294 Y96.008 E6.11787
G1 X100.466 Y95.364 E6.23947
G1 X101.708 Y94.872 E6.36099
G1 X103.350 Y94.460 E6.51490
G1 X103.350 Y92.450 E6.69768
G1 X106.650 Y92.450 E6.99775
G1 X106.650 Y94.460 E7.18052
G1 X108.292 Y94.872 E7.33444
G1 X109.534 Y95.364 E7.45595
G1 X110.706 Y96.008 E7.57756
G1 X111.258 Y96.409 E7.63952
G1 X112.707 Y94.959 E7.82598
G1 X115.041 Y97.293 E8.12605
G1 X113.607 Y98.727 E8.31048
G1 X114.332 Y99.870 E8.43357
G1 X114.901 Y101.080 E8.55517
G1 X115.315 Y102.352 E8.67677
G1 X115.505 Y103.350 E8.76919
G1 X117.550 Y103.350 E8.95513
G1 X117.550 Y106.650 E9.25520
G1 X115.505 Y106.650 E9.44114
G1 X115.315 Y107.648 E9.53356
G1 X114.901 Y108.920 E9.65516
G1 X114.332 Y110.130 E9.77676
G1 X113.607 Y111.273 E9.89985
G1 X115.041 Y112.707 E10.08428
G1 X112.707 Y115.041 E10.38435
G1 X111.258 Y113.591 E10.57081
G1 X110.706 Y113.992 E10.63277
G1 X109.534 Y114.636 E10.75438
G1 X108.292 Y115.128 E10.87589
G1 X106.708 Y115.525 E11.02435
G1 X106.252 Y115.580 F7800.000
G1 X106.338 Y114.955 F7800.000
G1 F1800
G1 X108.093 Y114.509 E11.17220
G1 X109.258 Y114.048 E11.27451
G1 X110.358 Y113.443 E11.37704
G1 X111.088 Y112.980 E11.44764
G1 X112.770 Y112.770 F7800.000
G1 F1800
G1 X109.802 Y109.802 E11.50898
G1 X110.062 Y108.171 F7800.000
G1 F1800
G1 X110.525 Y107.187 E11.62138
G1 X110.801 Y106.338 E11.71382
G1 X111.889 Y105.000 F7800.000
G1 F1800
G1 X115.988 Y105.000 E11.77374
G1 X114.905 Y106.338 F7800.000
G1 F1800
G1 X114.685 Y107.487 E11.87522
G1 X114.297 Y108.681 E11.98413
G1 X113.763 Y109.817 E12.09304
G1 X112.966 Y111.074 E12.22211
G1 E10.22211 F2400.00000
G92 E0
G1 X108.147 Y110.038 F7800.000
G1 E2.00000 F2400.00000
G1 F1800
G1 X107.507 Y110.386 E2.07528
G1 X106.836 Y110.651 E2.14991
G1 X106.338 Y110.780 E2.20317
G1 X105.000 Y111.788 F7800.000
G1 F1800
G1 X105.000 Y115.988 E2.26457
G1 X103.662 Y114.955 F7800.000
G1 F1800
G1 X101.907 Y114.509 E2.42150
G1 X100.742 Y114.048 E2.53009
G1 X99.642 Y113.443 E2.63892
G1 X98.912 Y112.980 E2.71386
G1 X97.230 Y112.770 F7800.000
G1 F1800
G1 X100.198 Y109.802 E2.77520
G1 X99.938 Y108.171 F7800.000
G1 F1800
G1 X99.475 Y107.187 E2.88761
G1 X99.200 Y106.338 E2.97999
G1 X98.111 Y105.000 F7800.000
G1 F1800
G1 X94.012 Y105.000 E3.03991
G1 X95.095 Y103.662 F7800.000
G1 F1800
G1 X95.314 Y102.513 E3.14139
G1 X95.703 Y101.319 E3.25031
G1 X96.238 Y100.183 E3.35922
G1 X97.034 Y98.926 E3.48829
G1 X97.230 Y97.230 F7800.000
G1 F1800
G1 X100.198 Y100.198 E3.54964
G1 X99.938 Y101.829 F7800.000
G1 F1800
G1 X99.475 Y102.813 E3.66204
G1 X99.199 Y103.662 E3.75449
G1 E1.75449 F2400.00000
G92 E0
G1 X101.853 Y99.962 F7800.000
G1 E2.00000 F2400.00000
G1 F1800
G1 X102.493 Y99.614 E2.07529
G1 X103.164 Y99.349 E2.14991
G1 X103.662 Y99.220 E2.20318
G1 X105.000 Y98.210 F7800.000
G1 F1800
G1 X105.000 Y94.012 E2.26453
G1 X103.662 Y95.045 F7800.000
G1 F1800
G1 X101.907 Y95.491 E2.42147
G1 X100.742 Y95.952 E2.53006
G1 X99.642 Y96.557 E2.63889
G1 X98.912 Y97.020 E2.71383
G1 E0.71383 F2400.00000
G92 E0
G1 X106.338 Y95.045 F7800.000
G1 E2.00000 F2400.00000
G1 F1800
G1 X108.093 Y95.491 E2.14785
G1 X109.258 Y95.952 E2.25016
G1 X110.358 Y96.557 E2.35269
G1 X111.088 Y97.020 E2.42329
G1 X112.770 Y97.230 F7800.000
G1 F1800
G1 X109.802 Y100.198 E2.48463
G1 X110.062 Y101.829 F7800.000
G1 F1800
G1 X110.525 Y102.813 E2.59731
G1 X110.800 Y103.662 E2.68992
G1 E0.68992 F2400.00000
G92 E0
G1 X114.905 Y103.662 F7800.000
G1 E2.00000 F2400.00000
G1 F1800
G1 X114.685 Y102.513 E2.10148
G1 X114.297 Y101.319 E2.21039
G1 X113.763 Y100.183 E2.31931
G1 X112.966 Y98.926 E2.44838
G1 E0.44838 F2400.00000
G92 E0
G1 X108.147 Y99.962 F7800.000
G1 E2.00000 F2400.00000
G1 F1800
G1 X107.507 Y99.614 E2.07528
G1 X106.836 Y99.349 E2.14991
G1 X106.338 Y99.220 E2.20318
G1 E0.20318 F2400.00000
G92 E0
G1 X101.853 Y110.038 F7800.000
G1 E2.00000 F2400.00000
G1 F1800
G1 X102.493 Y110.386 E2.07529
G1 X103.164 Y110.651 E2.14992
G1 X103.662 Y110.780 E2.20318
G1 E0.20318 F2400.00000
G92 E0
G1 X97.034 Y111.074 F7800.000
G1 E2.00000 F2400.00000
G1 F1800
G1 X96.237 Y109.817 E2.12907
G1 X95.703 Y108.681 E2.23799
G1 X95.314 Y107.487 E2.34691
G1 X95.095 Y106.338 E2.44839
G1 Z0.350 F7800.000
G1 Z0.450 F7800.000
G1 E0.44839 F2400.00000
G92 E0
G1 X106.281 Y114.686 F7800.000
G1 E2.00000 F2400.00000
G1 F900
G1 X106.281 Y111.142 E2.09704
G1 X106.941 Y110.973 E2.11568
G1 X107.674 Y110.682 E2.13727
G1 X108.446 Y110.258 E2.16138
G1 X110.974 Y112.786 E2.25927
G1 X109.139 Y113.795 E2.31660
G1 X108.004 Y114.244 E2.35002
G1 X106.340 Y114.671 E2.39706
G1 X106.800 Y114.018 F7800.000
G1 F900
G1 X106.800 Y111.544 E2.43599
G1 X107.101 Y111.467 E2.44089
G1 X107.895 Y111.152 E2.45433
G1 X108.354 Y110.900 E2.46257
G1 X110.119 Y112.664 E2.50184
G1 X108.917 Y113.325 E2.52342
G1 X107.843 Y113.750 E2.54160
G1 X106.858 Y114.003 E2.55761
G1 X106.402 Y114.060 F7800.000
G1 E0.55761 F2400.00000
G92 E0
G1 X108.969 Y109.850 F7800.000
G1 E2.00000 F2400.00000
G1 F900
G1 X109.567 Y109.289 E2.02245
G1 X109.840 Y108.959 E2.03417
G1 X113.588 Y112.707 E2.17932
G1 X112.707 Y113.588 E2.21343
G1 X109.011 Y109.892 E2.35654
G1 X110.290 Y108.478 F7800.000
G1 F900
G1 X110.839 Y107.312 E2.39183
G1 X111.174 Y106.281 E2.42149
G1 X114.631 Y106.281 E2.51615
G1 X114.415 Y107.417 E2.54781
G1 X114.037 Y108.578 E2.58123
G1 X113.518 Y109.683 E2.61465
G1 X112.732 Y110.920 E2.65477
G1 X110.333 Y108.520 E2.74769
G1 X110.915 Y108.369 F7800.000
G1 F900
G1 X111.322 Y107.503 E2.76275
G1 X111.551 Y106.800 E2.77438
