; generated by Slic3r 1.3.0-dev on 2017-08-25 at 16:19:00

; external perimeters extrusion width = 0.40mm (1.14mm^3/s)
; perimeters extrusion width = 0.68mm (3.95mm^3/s)
; infill extrusion width = 1.20mm (9.43mm^3/s)
; solid infill extrusion width = 0.68mm (1.32mm^3/s)
; top infill extrusion width = 0.68mm (0.99mm^3/s)
; support material extrusion width = 0.40mm (2.27mm^3/s)

M107
M190 S66 ; set bed temperature and wait for it to be reached
M104 S215 ; set temperature
G28 ; home all axes
G1 Z5 F5000 ; lift nozzle

; Filament gcode

M109 S215 ; set temperature and wait for it to be reached
G21 ; set units to millimeters
G90 ; use absolute coordinates
M82 ; use absolute distances for extrusion
G92 E0
G1 Z0.350 F7800.000
G1 E-2.00000 F2400.00000
G92 E0
G1 X94.906 Y92.785 F7800.000
G1 E2.00000 F2400.00000
G1 F1800
G1 X97.055 Y91.349 E2.23504
G1 X100.965 Y89.729 E2.61981
G1 X103.500 Y89.225 E2.85485
G1 X106.500 Y89.225 E3.12764
G1 X109.035 Y89.729 E3.36269
G1 X112.945 Y91.349 E3.74745
G1 X115.094 Y92.785 E3.98250
G1 X117.215 Y94.906 E4.25529
G1 X118.651 Y97.055 E4.49033
G1 X120.271 Y100.965 E4.87510
G1 X120.775 Y103.500 E5.11014
G1 X120.775 Y106.500 E5.38293
G1 X120.271 Y109.035 E5.61797
G1 X118.651 Y112.945 E6.00274
G1 X117.215 Y115.094 E6.23778
G1 X115.094 Y117.215 E6.51057
G1 X112.945 Y118.651 E6.74562
G1 X109.035 Y120.271 E7.13038
G1 X106.500 Y120.775 E7.36543
G1 X103.500 Y120.775 E7.63821
G1 X100.965 Y120.271 E7.87326
G1 X97.055 Y118.651 E8.25802
G1 X94.906 Y117.215 E8.49307
G1 X92.785 Y115.094 E8.76586
G1 X91.349 Y112.945 E9.00090
G1 X89.729 Y109.035 E9.38567
G1 X89.225 Y106.500 E9.62071
G1 X89.225 Y103.500 E9.89350
G1 X89.729 Y100.965 E10.12854
G1 X91.349 Y97.055 E10.51331
G1 X92.785 Y94.906 E10.74835
G1 X94.864 Y92.827 E11.01569
G1 E9.01569 F2400.00000
G92 E0
G1 X103.850 Y111.764 F7800.000
G1 E2.00000 F2400.00000
G1 F1800
G1 X102.883 Y111.515 E2.09078
G1 X102.083 Y111.199 E2.16901
G1 X101.015 Y110.611 E2.27985
G1 X102.974 Y108.652 E2.53183
G1 X103.850 Y108.999 E2.61746
G1 X103.850 Y111.704 E2.86343
G1 X103.820 Y112.163 F7800.000
G1 E0.86343 F2400.00000
G92 E0
G1 X102.927 Y107.815 F7800.000
G1 E2.00000 F2400.00000
G1 F1800
G1 X99.591 Y111.152 E2.42908
G1 X98.848 Y110.409 E2.52458
G1 X102.199 Y107.058 E2.95552
G1 X102.457 Y107.370 E2.99232
G1 X102.884 Y107.774 E3.04575
G1 E1.04575 F2400.00000
G92 E0
G1 X101.556 Y105.525 F7800.000
G1 E2.00000 F2400.00000
G1 F1800
G1 X96.825 Y105.525 E2.43022
G1 X96.825 Y104.475 E2.52571
G1 X101.556 Y104.475 E2.95593
G1 X101.523 Y105.000 E3.00377
G1 X101.552 Y105.465 E3.04616
G1 X101.019 Y106.150 F7800.000
G1 F1800
G1 X101.142 Y106.527 E3.08225
G1 X101.367 Y107.006 E3.13037
G1 X99.415 Y108.959 E3.38147
G1 X98.997 Y108.300 E3.45240
G1 X98.630 Y107.522 E3.53063
G1 X98.365 Y106.704 E3.60886
G1 X98.259 Y106.150 E3.66012
G1 X100.959 Y106.150 E3.90567
G1 X101.401 Y106.041 F7800.000
G1 E1.90567 F2400.00000
G92 E0
G1 X101.019 Y103.850 F7800.000
G1 E2.00000 F2400.00000
G1 F1800
G1 X98.259 Y103.850 E2.25101
G1 X98.365 Y103.296 E2.30227
G1 X98.630 Y102.478 E2.38052
G1 X99.003 Y101.690 E2.45977
G1 X99.415 Y101.041 E2.52965
G1 X101.367 Y102.994 E2.78075
G1 X101.142 Y103.473 E2.82887
G1 X101.038 Y103.793 E2.85951
G1 X100.968 Y104.247 F7800.000
G1 X102.199 Y102.942 F7800.000
G1 F1800
G1 X98.848 Y99.591 E3.29045
G1 X99.591 Y98.848 E3.38595
G1 X102.928 Y102.186 E3.81513
G1 X102.466 Y102.620 E3.87284
G1 X102.237 Y102.896 E3.90537
G1 X102.974 Y101.348 F7800.000
G1 F1800
G1 X101.015 Y99.389 E4.15735
G1 X102.083 Y98.801 E4.26819
G1 X102.883 Y98.485 E4.34642
G1 X103.850 Y98.236 E4.43720
G1 X103.850 Y101.001 E4.68863
G1 X103.030 Y101.326 E4.76880
G1 X102.744 Y101.675 F7800.000
G1 X104.475 Y101.570 F7800.000
G1 F1800
G1 X104.475 Y96.825 E5.20026
G1 X105.525 Y96.825 E5.29576
G1 X105.525 Y101.569 E5.72712
G1 X105.218 Y101.530 E5.75524
G1 X104.780 Y101.530 E5.79513
G1 X104.534 Y101.562 E5.81762
G1 X106.150 Y101.001 F7800.000
G1 F1800
G1 X106.150 Y98.236 E6.06905
G1 X107.117 Y98.485 E6.15982
G1 X107.917 Y98.801 E6.23805
G1 X108.985 Y99.389 E6.34890
G1 X107.026 Y101.348 E6.60088
G1 X106.206 Y101.024 E6.68105
G1 X105.756 Y101.070 F7800.000
G1 X105.829 Y102.276 F7800.000
G1 F1800
G1 X106.214 Y102.421 E6.71847
G1 X106.527 Y102.593 E6.75103
G1 X106.818 Y102.804 E6.78365
G1 X107.086 Y103.058 E6.81719
G1 X107.306 Y103.324 E6.84868
G1 X107.498 Y103.627 E6.88123
G1 X107.651 Y103.951 E6.91378
G1 X107.761 Y104.291 E6.94633
G1 X107.828 Y104.643 E6.97888
G1 X107.851 Y105.000 E7.01144
G1 X107.828 Y105.357 E7.04399
G1 X107.761 Y105.709 E7.07654
G1 X107.651 Y106.049 E7.10909
G1 X107.498 Y106.373 E7.14164
G1 X107.306 Y106.676 E7.17420
G1 X107.078 Y106.951 E7.20675
G1 X106.817 Y107.196 E7.23930
G1 X106.527 Y107.407 E7.27185
G1 X106.214 Y107.579 E7.30441
G1 X105.881 Y107.711 E7.33696
G1 X105.534 Y107.800 E7.36951
G1 X105.179 Y107.845 E7.40206
G1 X104.821 Y107.845 E7.43461
G1 X104.466 Y107.800 E7.46717
G1 X104.119 Y107.711 E7.49972
G1 X103.786 Y107.579 E7.53227
G1 X103.473 Y107.407 E7.56482
G1 X103.182 Y107.196 E7.59744
G1 X102.914 Y106.942 E7.63099
G1 X102.694 Y106.676 E7.66247
G1 X102.502 Y106.373 E7.69502
G1 X102.349 Y106.049 E7.72758
G1 X102.239 Y105.708 E7.76020
G1 X102.171 Y105.346 E7.79374
G1 X102.149 Y105.000 E7.82522
G1 X102.172 Y104.643 E7.85778
G1 X102.239 Y104.291 E7.89033
G1 X102.350 Y103.950 E7.92295
G1 X102.508 Y103.617 E7.95649
G1 X102.694 Y103.324 E7.98798
G1 X102.922 Y103.049 E8.02053
G1 X103.183 Y102.804 E8.05308
G1 X103.463 Y102.600 E8.08457
G1 X103.786 Y102.421 E8.11811
G1 X104.119 Y102.289 E8.15073
G1 X104.454 Y102.203 E8.18222
G1 X104.820 Y102.155 E8.21576
G1 X105.179 Y102.155 E8.24838
G1 X105.523 Y102.198 E8.27986
G1 X105.770 Y102.261 E8.30311
G1 X105.865 Y102.237 F7800.000
G1 E6.30311 F2400.00000
G92 E0
G1 X108.633 Y102.994 F7800.000
G1 E2.00000 F2400.00000
G1 F1800
G1 X110.585 Y101.041 E2.25111
G1 X111.003 Y101.700 E2.32204
G1 X111.370 Y102.478 E2.40027
G1 X111.635 Y103.296 E2.47850
G1 X111.741 Y103.850 E2.52975
G1 X108.981 Y103.850 E2.78076
G1 X108.858 Y103.473 E2.81685
G1 X108.658 Y103.048 E2.85951
G1 X108.390 Y102.676 F7800.000
G1 E0.85951 F2400.00000
G92 E0
G1 X108.981 Y106.150 F7800.000
G1 E2.00000 F2400.00000
G1 F1800
G1 X111.741 Y106.150 E2.25101
G1 X111.635 Y106.704 E2.30227
G1 X111.370 Y107.522 E2.38049
G1 X111.003 Y108.300 E2.45872
G1 X110.585 Y108.959 E2.52965
G1 X108.633 Y107.006 E2.78076
G1 X108.858 Y106.527 E2.82888
G1 X108.962 Y106.207 E2.85951
G1 X109.032 Y105.753 F7800.000
G1 E0.85951 F2400.00000
G92 E0
G1 X107.026 Y108.652 F7800.000
G1 E2.00000 F2400.00000
G1 F1800
G1 X108.985 Y110.611 E2.25198
G1 X107.917 Y111.199 E2.36282
G1 X107.117 Y111.515 E2.44105
G1 X106.150 Y111.764 E2.53183
G1 X106.150 Y108.999 E2.78326
G1 X106.970 Y108.674 E2.86343
G1 X107.344 Y108.410 F7800.000
G1 X107.072 Y107.814 F7800.000
G1 F1800
G1 X107.534 Y107.380 E2.92114
G1 X107.801 Y107.058 E2.95913
G1 X111.152 Y110.409 E3.39007
G1 X110.409 Y111.152 E3.48557
G1 X107.114 Y107.857 E3.90930
G1 E1.90930 F2400.00000
G92 E0
G1 X108.444 Y105.525 F7800.000
G1 E2.00000 F2400.00000
G1 F1800
G1 X108.477 Y105.000 E2.04784
G1 X108.444 Y104.475 E2.09569
G1 X113.175 Y104.475 E2.52590
G1 X113.175 Y105.525 E2.62140
G1 X108.504 Y105.525 E3.04616
G1 E1.04616 F2400.00000
G92 E0
G1 X107.801 Y102.942 F7800.000
G1 E2.00000 F2400.00000
G1 F1800
G1 X107.543 Y102.630 E2.03680
G1 X107.073 Y102.185 E2.09568
G1 X110.409 Y98.848 E2.52476
G1 X111.152 Y99.591 E2.62026
G1 X107.843 Y102.899 E3.04575
G1 E1.04575 F2400.00000
G92 E0
G1 X105.525 Y108.431 F7800.000
G1 E2.00000 F2400.00000
G1 F1800
G1 X105.525 Y113.175 E2.43136
G1 X104.475 Y113.175 E2.52686
G1 X104.475 Y108.431 E2.95822
G1 X104.782 Y108.470 E2.98634
G1 X105.218 Y108.470 E3.02604
G1 X105.466 Y108.439 E3.04871
G1 E1.04871 F2400.00000
G92 E0
G1 X106.150 Y112.587 F7800.000
G1 E2.00000 F2400.00000
G1 F1800
G1 X106.150 Y113.800 E2.11034
G1 X103.850 Y113.800 E2.31948
G1 X103.850 Y112.587 E2.42981
G1 X102.636 Y112.275 E2.54376
G1 X101.743 Y111.921 E2.63111
G1 X100.901 Y111.459 E2.71846
G1 X100.476 Y111.150 E2.76620
G1 X99.591 Y112.036 E2.88012
G1 X97.964 Y110.409 E3.08926
G1 X98.837 Y109.536 E3.20150
G1 X98.297 Y108.685 E3.29319
G1 X97.888 Y107.816 E3.38054
G1 X97.591 Y106.902 E3.46789
G1 X97.447 Y106.150 E3.53753
G1 X96.200 Y106.150 E3.65096
G1 X96.200 Y103.850 E3.86010
G1 X97.447 Y103.850 E3.97354
G1 X97.591 Y103.098 E4.04318
G1 X97.888 Y102.184 E4.13052
G1 X98.297 Y101.315 E4.21787
G1 X98.837 Y100.464 E4.30956
G1 X97.964 Y99.591 E4.42181
G1 X99.591 Y97.964 E4.63095
G1 X100.476 Y98.850 E4.74486
G1 X100.901 Y98.541 E4.79261
G1 X101.743 Y98.079 E4.87996
G1 X102.636 Y97.725 E4.96731
G1 X103.850 Y97.413 E5.08125
G1 X103.850 Y96.200 E5.19159
G1 X106.150 Y96.200 E5.40073
G1 X106.150 Y97.413 E5.51107
G1 X107.364 Y97.725 E5.62501
G1 X108.257 Y98.079 E5.71236
G1 X109.099 Y98.541 E5.79971
G1 X109.524 Y98.850 E5.84746
G1 X110.409 Y97.964 E5.96137
G1 X112.036 Y99.591 E6.17051
G1 X111.163 Y100.464 E6.28276
G1 X111.703 Y101.315 E6.37445
G1 X112.112 Y102.184 E6.46180
G1 X112.409 Y103.098 E6.54914
G1 X112.553 Y103.850 E6.61878
G1 X113.800 Y103.850 E6.73222
G1 X113.800 Y106.150 E6.94136
G1 X112.553 Y106.150 E7.05479
G1 X112.409 Y106.902 E7.12443
G1 X112.112 Y107.816 E7.21178
G1 X111.703 Y108.685 E7.29913
G1 X111.163 Y109.536 E7.39082
G1 X112.036 Y110.409 E7.50306
G1 X110.409 Y112.036 E7.71220
G1 X109.524 Y111.150 E7.82612
G1 X109.099 Y111.459 E7.87387
G1 X108.257 Y111.921 E7.96121
G1 X107.364 Y112.275 E8.04856
G1 X106.208 Y112.572 E8.15705
G1 X105.752 Y112.627 F7800.000
G1 X105.838 Y112.255 F7800.000
G1 F1800
G1 X107.240 Y111.895 E8.16821
G1 X108.087 Y111.560 E8.17523
G1 X108.885 Y111.121 E8.18225
G1 X109.513 Y110.723 E8.18798
G1 X110.560 Y110.560 F7800.000
G1 F1800
G1 X107.676 Y107.676 E8.39583
G1 E6.39583 F2400.00000
G92 E0
G1 X105.000 Y108.782 F7800.000
G1 E2.00000 F2400.00000
G1 F1800
G1 X105.000 Y112.863 E2.20794
G1 X104.162 Y112.255 F7800.000
G1 F1800
G1 X102.760 Y111.895 E2.22839
G1 X101.913 Y111.560 E2.24125
G1 X101.115 Y111.121 E2.25410
G1 X100.487 Y110.723 E2.26461
G1 X99.440 Y110.560 F7800.000
G1 F1800
G1 X102.325 Y107.675 E2.47251
G1 E0.47251 F2400.00000
G92 E0
G1 X100.997 Y105.000 F7800.000
G1 E2.00000 F2400.00000
G1 F1800
G1 X97.137 Y105.000 E2.19672
G1 X97.794 Y104.162 F7800.000
G1 F1800
G1 X97.978 Y103.197 E2.21060
G1 X98.259 Y102.331 E2.22346
G1 X98.651 Y101.502 E2.23640
G1 X99.297 Y100.482 E2.25346
G1 X99.440 Y99.440 F7800.000
G1 F1800
G1 X102.324 Y102.324 E2.46130
G1 E0.46130 F2400.00000
G92 E0
G1 X105.000 Y101.218 F7800.000
G1 E2.00000 F2400.00000
G1 F1800
G1 X105.000 Y97.137 E2.20794
G1 X105.838 Y97.745 F7800.000
G1 F1800
G1 X107.240 Y98.105 E2.21910
G1 X108.087 Y98.440 E2.22612
G1 X108.885 Y98.879 E2.23314
G1 X109.513 Y99.277 E2.23887
G1 X110.560 Y99.440 F7800.000
G1 F1800
G1 X107.675 Y102.325 E2.44677
G1 E0.44677 F2400.00000
G92 E0
G1 X109.003 Y105.000 F7800.000
G1 E2.00000 F2400.00000
G1 F1800
G1 X112.863 Y105.000 E2.19672
G1 X112.206 Y104.162 F7800.000
G1 F1800
G1 X112.022 Y103.197 E2.21060
G1 X111.741 Y102.331 E2.22346
G1 X111.353 Y101.507 E2.23632
G1 X110.703 Y100.482 E2.25347
G1 E0.25347 F2400.00000
G92 E0
G1 X112.206 Y105.838 F7800.000
G1 E2.00000 F2400.00000
G1 F1800
G1 X112.022 Y106.803 E2.01388
G1 X111.741 Y107.669 E2.02674
G1 X111.353 Y108.493 E2.03960
G1 X110.750 Y109.444 E2.05551
G1 X110.765 Y109.580 E2.05745
G1 E0.05745 F2400.00000
G92 E0
G1 X99.297 Y109.518 F7800.000
G1 E2.00000 F2400.00000
G1 F1800
G1 X98.647 Y108.493 E2.01715
G1 X98.259 Y107.669 E2.03000
G1 X97.978 Y106.803 E2.04286
G1 X97.794 Y105.838 E2.05674
G1 E0.05674 F2400.00000
G92 E0
G1 X100.487 Y99.277 F7800.000
G1 E2.00000 F2400.00000
G1 F1800
G1 X101.115 Y98.879 E2.01051
G1 X101.913 Y98.440 E2.02336
G1 X102.760 Y98.105 E2.03622
G1 X104.162 Y97.745 E2.05667
G1 Z0.350 F7800.000
G1 Z0.450 F7800.000
G1 E0.05667 F2400.00000
G92 E0
G1 X103.700 Y111.570 F7800.000
G1 E2.00000 F2400.00000
G1 F900
G1 X102.929 Y111.372 E2.01252
G1 X102.147 Y111.063 E2.02576
G1 X101.262 Y110.576 E2.04165
G1 X103.011 Y108.828 E2.08057
G1 X103.700 Y109.101 E2.09224
G1 X103.700 Y111.510 E2.13016
G1 X103.666 Y111.969 F7800.000
G1 X104.375 Y108.160 F7800.000
G1 F900
G1 X104.002 Y108.061 E2.14072
G1 X103.629 Y107.914 E2.15171
G1 X103.275 Y107.719 E2.16278
G1 X102.948 Y107.481 E2.17385
G1 X102.653 Y107.204 E2.18493
G1 X102.395 Y106.893 E2.19600
G1 X102.178 Y106.551 E2.20707
G1 X102.006 Y106.185 E2.21814
G1 X101.880 Y105.798 E2.22930
G1 X101.804 Y105.375 E2.24106
G1 X101.780 Y105.000 E2.25135
G1 X101.805 Y104.596 E2.26242
G1 X101.881 Y104.199 E2.27349
G1 X102.006 Y103.815 E2.28456
G1 X102.178 Y103.449 E2.29563
G1 X102.395 Y103.107 E2.30670
G1 X102.653 Y102.796 E2.31777
G1 X102.948 Y102.519 E2.32884
G1 X103.275 Y102.281 E2.33992
G1 X103.629 Y102.086 E2.35099
G1 X104.005 Y101.938 E2.36206
G1 X104.369 Y101.844 E2.37235
G1 X104.794 Y101.786 E2.38410
G1 X105.202 Y101.786 E2.39527
G1 X105.603 Y101.837 E2.40634
G1 X105.995 Y101.938 E2.41741
G1 X106.371 Y102.086 E2.42848
G1 X106.725 Y102.281 E2.43955
G1 X107.052 Y102.519 E2.45062
G1 X107.347 Y102.796 E2.46169
G1 X107.605 Y103.107 E2.47276
G1 X107.822 Y103.449 E2.48384
G1 X107.994 Y103.815 E2.49491
G1 X108.119 Y104.199 E2.50598
G1 X108.195 Y104.596 E2.51705
G1 X108.220 Y105.000 E2.52812
G1 X108.195 Y105.404 E2.53919
G1 X108.119 Y105.801 E2.55026
G1 X107.994 Y106.185 E2.56133
G1 X107.822 Y106.551 E2.57240
G1 X107.605 Y106.893 E2.58348
G1 X107.347 Y107.204 E2.59455
G1 X107.052 Y107.481 E2.60562
G1 X106.725 Y107.719 E2.61669
G1 X106.371 Y107.914 E2.62776
G1 X105.995 Y108.062 E2.63883
G1 X105.603 Y108.163 E2.64990
G1 X105.202 Y108.214 E2.66097
G1 X104.798 Y108.214 E2.67204
G1 X104.435 Y108.168 E2.68207
G1 X104.474 Y107.650 F7800.000
G1 F900
G1 X104.165 Y107.568 E2.68711
G1 X103.850 Y107.443 E2.69244
G1 X103.553 Y107.280 E2.69777
G1 X103.279 Y107.081 E2.70311
G1 X103.031 Y106.849 E2.70845
G1 X102.815 Y106.587 E2.71378
G1 X102.634 Y106.301 E2.71912
G1 X102.489 Y105.994 E2.72446
G1 X102.384 Y105.671 E2.72981
G1 X102.319 Y105.312 E2.73554
G1 X102.300 Y105.000 E2.74047
G1 X102.321 Y104.662 E2.74580
G1 X102.384 Y104.328 E2.75114
G1 X102.489 Y104.006 E2.75648
G1 X102.634 Y103.699 E2.76181
G1 X102.815 Y103.413 E2.76715
G1 X103.031 Y103.151 E2.77249
G1 X103.279 Y102.919 E2.77782
G1 X103.553 Y102.720 E2.78316
G1 X103.850 Y102.557 E2.78850
G1 X104.166 Y102.432 E2.79384
G1 X104.469 Y102.354 E2.79876
G1 X104.830 Y102.305 E2.80449
G1 X105.170 Y102.305 E2.80984
G1 X105.506 Y102.347 E2.81518
G1 X105.834 Y102.432 E2.82052
G1 X106.150 Y102.557 E2.82585
G1 X106.447 Y102.720 E2.83119
G1 X106.721 Y102.919 E2.83653
G1 X106.969 Y103.151 E2.84187
G1 X107.185 Y103.413 E2.84720
G1 X107.366 Y103.699 E2.85254
G1 X107.511 Y104.006 E2.85788
G1 X107.616 Y104.328 E2.86321
G1 X107.679 Y104.662 E2.86855
G1 X107.700 Y105.000 E2.87389
G1 X107.679 Y105.338 E2.87922
G1 X107.616 Y105.672 E2.88456
G1 X107.511 Y105.994 E2.88990
G1 X107.366 Y106.301 E2.89524
G1 X107.185 Y106.587 E2.90057
G1 X106.969 Y106.849 E2.90591
G1 X106.721 Y107.081 E2.91125
G1 X106.447 Y107.280 E2.91658
G1 X106.150 Y107.443 E2.92192
G1 X105.834 Y107.568 E2.92726
G1 X105.506 Y107.653 E2.93259
G1 X105.170 Y107.695 E2.93793
G1 X104.830 Y107.695 E2.94327
G1 X104.534 Y107.658 E2.94797
G1 X104.474 Y107.650 F7800.000
G1 X104.219 Y108.748 F7800.000
G1 F3600
G1 X102.885 Y108.220 E2.98724
G1 X99.591 Y111.515 E3.11480
G1 X98.485 Y110.409 E3.15759
G1 X101.811 Y107.084 E3.28636
G1 X101.485 Y106.392 E3.30730
G1 X101.287 Y105.781 E3.32486
G1 X96.569 Y105.781 E3.45405
G1 X96.569 Y104.219 E3.49685
G1 X101.287 Y104.219 E3.62604
G1 X101.485 Y103.608 E3.64360
G1 X101.811 Y102.916 E3.66454
G1 X98.485 Y99.591 E3.79331
G1 X99.591 Y98.485 E3.83610
G1 X102.885 Y101.780 E3.96366
G1 X104.219 Y101.252 E4.00293
G1 X104.219 Y96.569 E4.13115
G1 X105.781 Y96.569 E4.17394
G1 X105.781 Y101.252 E4.30217
G1 X107.115 Y101.780 E4.34144
G1 X110.409 Y98.485 E4.46899
G1 X111.515 Y99.591 E4.51179
G1 X108.189 Y102.916 E4.64055
G1 X108.515 Y103.608 E4.66150
G1 X108.713 Y104.219 E4.67906
G1 X113.431 Y104.219 E4.80825
G1 X113.431 Y105.781 E4.85104
G1 X108.713 Y105.781 E4.98024
