; generated by Slic3r 1.3.0-dev on 2017-09-08 at 16:41:25

; external perimeters extrusion width = 0.40mm (1.14mm^3/s)
; perimeters extrusion width = 0.68mm (3.95mm^3/s)
; infill extrusion width = 1.20mm (9.43mm^3/s)
; solid infill extrusion width = 0.68mm (1.32mm^3/s)
; top infill extrusion width = 0.68mm (0.99mm^3/s)

M107
M190 S66 ; set bed temperature and wait for it to be reached
M104 S215 ; set temperature
G28 ; home all axes
G1 Z5 F5000 ; lift nozzle

; Filament gcode

M109 S215 ; set temperature and wait for it to be reached
G21 ; set units to millimeters
G90 ; use absolute coordinates
M82 ; use absolute distances for extrusion
G92 E0
G1 Z0.350 F7800.000
G1 E-2.00000 F2400.00000
G92 E0
G1 X78.265 Y93.753 F7800.000
G1 E2.00000 F2400.00000
G1 F1800
G1 X80.018 Y92.274 E2.20854
G1 X82.170 Y91.481 E2.41708
G1 X83.350 Y91.375 E2.52479
G1 X136.650 Y91.375 E7.37134
G1 X138.909 Y91.772 E7.57988
G1 X140.897 Y92.915 E7.78843
G1 X142.376 Y94.668 E7.99697
G1 X143.169 Y96.820 E8.20551
G1 X143.275 Y98.000 E8.31322
G1 X143.275 Y122.000 E10.49553
G1 X142.878 Y124.259 E10.70407
G1 X141.735 Y126.247 E10.91261
G1 X139.982 Y127.726 E11.12116
G1 X137.830 Y128.519 E11.32970
G1 X136.650 Y128.625 E11.43741
G1 X83.350 Y128.625 E16.28395
G1 X81.091 Y128.228 E16.49250
G1 X79.103 Y127.085 E16.70104
G1 X77.624 Y125.332 E16.90958
G1 X76.831 Y123.180 E17.11812
G1 X76.725 Y122.000 E17.22583
G1 X76.725 Y98.000 E19.40814
G1 X77.122 Y95.741 E19.61668
G1 X78.236 Y93.805 E19.81977
G1 E17.81977 F2400.00000
G92 E0
G1 X135.050 Y120.400 F7800.000
G1 E2.00000 F2400.00000
G1 F1800
G1 X84.950 Y120.400 E6.55561
G1 X84.950 Y99.600 E8.44699
G1 X135.050 Y99.600 E13.00260
G1 X135.050 Y120.340 E14.88852
G1 X135.675 Y121.025 F7800.000
G1 F1800
G1 X84.325 Y121.025 E19.55777
G1 X84.325 Y98.975 E21.56279
G1 X135.675 Y98.975 E26.23205
G1 X135.675 Y120.965 E28.23161
G1 X136.300 Y121.650 F7800.000
G1 F1800
G1 X83.700 Y121.650 E33.01450
G1 X83.700 Y98.350 E35.13316
G1 X136.300 Y98.350 E39.91606
G1 X136.300 Y121.590 E42.02926
G1 X135.904 Y121.595 F7800.000
G1 E40.02926 F2400.00000
G92 E0
G1 X134.182 Y120.018 F7800.000
G1 E2.00000 F2400.00000
G1 F1800
G1 X134.668 Y119.532 E2.06285
G1 X134.668 Y118.644 E2.14404
G1 X133.294 Y120.018 E2.32172
G1 X132.406 Y120.018 E2.40291
G1 X134.668 Y117.756 E2.69541
G1 X134.668 Y116.867 E2.77661
G1 X131.517 Y120.018 E3.18394
G1 X130.629 Y120.018 E3.26513
G1 X134.668 Y115.979 E3.78729
G1 X134.668 Y115.091 E3.86849
G1 X129.741 Y120.018 E4.50547
G1 X128.852 Y120.018 E4.58667
G1 X134.668 Y114.202 E5.33848
G1 X134.668 Y113.314 E5.41967
G1 X127.964 Y120.018 E6.28631
G1 X127.076 Y120.018 E6.36751
G1 X134.668 Y112.426 E7.34897
G1 X134.668 Y111.537 E7.43017
G1 X126.187 Y120.018 E8.52647
G1 X125.299 Y120.018 E8.60766
G1 X134.668 Y110.649 E9.81878
G1 X134.668 Y109.761 E9.89998
G1 X124.411 Y120.018 E11.22593
G1 X123.522 Y120.018 E11.30712
G1 X134.668 Y108.872 E12.74790
G1 X134.668 Y107.984 E12.82910
G1 X122.634 Y120.018 E14.38470
G1 X121.746 Y120.018 E14.46590
G1 X134.668 Y107.096 E16.13633
G1 X134.668 Y106.207 E16.21753
G1 X120.857 Y120.018 E18.00279
G1 X119.969 Y120.018 E18.08398
G1 X134.668 Y105.319 E19.98407
G1 X134.668 Y104.431 E20.06527
G1 X119.081 Y120.018 E22.08018
G1 X118.192 Y120.018 E22.16138
G1 X134.668 Y103.542 E24.29112
G1 X134.668 Y102.654 E24.37232
G1 X117.304 Y120.018 E26.61689
G1 X116.416 Y120.018 E26.69808
G1 X134.668 Y101.766 E29.05748
G1 X134.668 Y100.877 E29.13868
G1 X115.527 Y120.018 E31.61290
G1 X114.639 Y120.018 E31.69410
G1 X134.668 Y99.982 E34.28363
G1 X133.787 Y99.982 E34.36415
G1 X113.751 Y120.018 E36.95416
G1 X112.862 Y120.018 E37.03536
G1 X132.899 Y99.982 E39.62537
G1 X132.011 Y99.982 E39.70656
G1 X111.974 Y120.018 E42.29657
G1 X111.086 Y120.018 E42.37777
G1 X131.122 Y99.982 E44.96778
G1 X130.234 Y99.982 E45.04898
G1 X110.197 Y120.018 E47.63899
G1 X109.309 Y120.018 E47.72018
G1 X129.346 Y99.982 E50.31020
G1 X128.458 Y99.982 E50.39139
G1 X108.421 Y120.018 E52.98140
G1 X107.532 Y120.018 E53.06260
G1 X127.569 Y99.982 E55.65261
G1 X126.681 Y99.982 E55.73380
G1 X106.644 Y120.018 E58.32382
G1 X105.756 Y120.018 E58.40501
G1 X125.793 Y99.982 E60.99502
G1 X124.904 Y99.982 E61.07622
G1 X104.867 Y120.018 E63.66623
G1 X103.979 Y120.018 E63.74743
G1 X124.016 Y99.982 E66.33744
G1 X123.128 Y99.982 E66.41863
G1 X103.091 Y120.018 E69.00864
G1 X102.202 Y120.018 E69.08984
G1 X122.239 Y99.982 E71.67985
G1 X121.351 Y99.982 E71.76105
G1 X101.314 Y120.018 E74.35106
G1 X100.426 Y120.018 E74.43225
G1 X120.463 Y99.982 E77.02227
G1 X119.574 Y99.982 E77.10346
G1 X99.537 Y120.018 E79.69347
G1 X98.649 Y120.018 E79.77467
G1 X118.686 Y99.982 E82.36468
G1 X117.798 Y99.982 E82.44587
G1 X97.761 Y120.018 E85.03589
G1 X96.873 Y120.018 E85.11708
G1 X116.909 Y99.982 E87.70709
G1 X116.021 Y99.982 E87.78829
G1 X95.984 Y120.018 E90.37830
G1 X95.096 Y120.018 E90.45950
G1 X115.133 Y99.982 E93.04951
G1 X114.244 Y99.982 E93.13070
G1 X94.208 Y120.018 E95.72071
G1 X93.319 Y120.018 E95.80191
G1 X113.356 Y99.982 E98.39192
G1 X112.468 Y99.982 E98.47312
G1 X92.431 Y120.018 E101.06313
G1 X91.543 Y120.018 E101.14432
G1 X111.579 Y99.982 E103.73433
G1 X110.691 Y99.982 E103.81553
G1 X90.654 Y120.018 E106.40554
G1 X89.766 Y120.018 E106.48674
G1 X109.803 Y99.982 E109.07675
G1 X108.914 Y99.982 E109.15794
G1 X88.878 Y120.018 E111.74795
G1 X87.989 Y120.018 E111.82915
G1 X108.026 Y99.982 E114.41916
G1 X107.138 Y99.982 E114.50036
G1 X87.101 Y120.018 E117.09037
G1 X86.213 Y120.018 E117.17156
G1 X106.249 Y99.982 E119.76158
G1 X105.361 Y99.982 E119.84277
G1 X85.332 Y120.011 E122.43183
G1 X85.332 Y119.123 E122.51303
G1 X104.473 Y99.982 E124.98726
G1 X103.584 Y99.982 E125.06846
G1 X85.332 Y118.234 E127.42787
G1 X85.332 Y117.346 E127.50906
G1 X102.696 Y99.982 E129.75364
G1 X101.808 Y99.982 E129.83484
G1 X85.332 Y116.458 E131.96459
G1 X85.332 Y115.569 E132.04578
G1 X100.919 Y99.982 E134.06071
G1 X100.031 Y99.982 E134.14190
G1 X85.332 Y114.681 E136.04200
G1 X85.332 Y113.793 E136.12320
G1 X99.143 Y99.982 E137.90847
G1 X98.254 Y99.982 E137.98966
G1 X85.332 Y112.904 E139.66010
G1 X85.332 Y112.016 E139.74130
G1 X97.366 Y99.982 E141.29691
G1 X96.478 Y99.982 E141.37811
G1 X85.332 Y111.128 E142.81889
G1 X85.332 Y110.239 E142.90009
G1 X95.589 Y99.982 E144.22605
G1 X94.701 Y99.982 E144.30724
G1 X85.332 Y109.351 E145.51837
G1 X85.332 Y108.463 E145.59957
G1 X93.813 Y99.982 E146.69587
G1 X92.924 Y99.982 E146.77707
G1 X85.332 Y107.574 E147.75854
G1 X85.332 Y106.686 E147.83974
G1 X92.036 Y99.982 E148.70639
G1 X91.148 Y99.982 E148.78758
G1 X85.332 Y105.798 E149.53940
G1 X85.332 Y104.910 E149.62060
G1 X90.260 Y99.982 E150.25759
G1 X89.371 Y99.982 E150.33879
G1 X85.332 Y104.021 E150.86095
G1 X85.332 Y103.133 E150.94215
G1 X88.483 Y99.982 E151.34949
G1 X87.595 Y99.982 E151.43068
G1 X85.332 Y102.245 E151.72319
G1 X85.332 Y101.356 E151.80439
G1 X86.706 Y99.982 E151.98207
G1 X85.818 Y99.982 E152.06326
G1 X85.332 Y100.468 E152.12609
G1 Z0.450 F7800.000
G1 X135.273 Y120.623 F7800.000
G1 F3600
G1 X84.727 Y120.623 E153.50998
G1 X84.727 Y99.377 E154.09167
G1 X135.273 Y99.377 E155.47556
G1 X135.273 Y120.563 E156.05561
G1 X135.931 Y121.281 F7800.000
G1 F3600
G1 X84.069 Y121.281 E157.47556
G1 X84.069 Y98.719 E158.09330
G1 X135.931 Y98.719 E159.51325
G1 X135.931 Y121.221 E160.12936
G1 X136.450 Y121.800 F7800.000
G1 F1800
G1 X83.550 Y121.800 E160.96189
G1 X83.550 Y98.200 E161.33331
G1 X136.450 Y98.200 E162.16584
G1 X136.450 Y121.740 E162.53631
G1 X136.054 Y121.744 F7800.000
G1 X134.871 Y100.292 F7800.000
G1 F1200
G1 X134.358 Y99.779 E162.55621
G1 X133.424 Y99.779 E162.58189
G1 X134.871 Y101.226 E162.63811
G1 X134.871 Y102.161 E162.66379
G1 X132.489 Y99.779 E162.75632
G1 X131.554 Y99.779 E162.78199
G1 X134.871 Y103.096 E162.91084
G1 X134.871 Y104.030 E162.93651
G1 X130.620 Y99.779 E163.10167
G1 X129.685 Y99.779 E163.12734
G1 X134.871 Y104.965 E163.32881
G1 X134.871 Y105.899 E163.35448
G1 X128.751 Y99.779 E163.59226
G1 X127.816 Y99.779 E163.61794
G1 X134.871 Y106.834 E163.89203
G1 X134.871 Y107.768 E163.91770
G1 X126.882 Y99.779 E164.22811
G1 X125.947 Y99.779 E164.25378
G1 X134.871 Y108.703 E164.60049
G1 X134.871 Y109.637 E164.62617
G1 X125.013 Y99.779 E165.00919
G1 X124.078 Y99.779 E165.03487
G1 X134.871 Y110.572 E165.45421
G1 X134.871 Y111.507 E165.47988
G1 X123.143 Y99.779 E165.93553
G1 X122.209 Y99.779 E165.96121
G1 X134.871 Y112.441 E166.45317
G1 X134.871 Y113.376 E166.47884
G1 X121.274 Y99.779 E167.00711
G1 X120.340 Y99.779 E167.03279
G1 X134.871 Y114.310 E167.59737
G1 X134.871 Y115.245 E167.62305
G1 X119.405 Y99.779 E168.22394
G1 X118.471 Y99.779 E168.24962
G1 X134.871 Y116.179 E168.88682
G1 X134.871 Y117.114 E168.91250
G1 X117.536 Y99.779 E169.58602
G1 X116.602 Y99.779 E169.61169
G1 X134.871 Y118.048 E170.32152
G1 X134.871 Y118.983 E170.34720
G1 X115.667 Y99.779 E171.09334
G1 X114.732 Y99.779 E171.11902
G1 X134.871 Y119.918 E171.90147
G1 X134.871 Y120.221 E171.90979
G1 X134.239 Y120.221 E171.92715
G1 X113.798 Y99.779 E172.72137
G1 X112.863 Y99.779 E172.74705
G1 X133.304 Y120.221 E173.54127
G1 X132.370 Y120.221 E173.56695
G1 X111.929 Y99.779 E174.36117
G1 X110.994 Y99.779 E174.38685
G1 X131.435 Y120.221 E175.18107
G1 X130.501 Y120.221 E175.20675
G1 X110.060 Y99.779 E176.00097
G1 X109.125 Y99.779 E176.02665
G1 X129.566 Y120.221 E176.82087
G1 X128.632 Y120.221 E176.84655
G1 X108.191 Y99.779 E177.64077
G1 X107.256 Y99.779 E177.66645
G1 X127.697 Y120.221 E178.46067
G1 X126.762 Y120.221 E178.48635
G1 X106.321 Y99.779 E179.28057
G1 X105.387 Y99.779 E179.30625
G1 X125.828 Y120.221 E180.10047
G1 X124.893 Y120.221 E180.12615
G1 X104.452 Y99.779 E180.92037
G1 X103.518 Y99.779 E180.94605
G1 X123.959 Y120.221 E181.74027
G1 X123.024 Y120.221 E181.76595
G1 X102.583 Y99.779 E182.56017
G1 X101.649 Y99.779 E182.58585
G1 X122.090 Y120.221 E183.38007
G1 X121.155 Y120.221 E183.40575
G1 X100.714 Y99.779 E184.19997
G1 X99.780 Y99.779 E184.22565
G1 X120.221 Y120.221 E185.01987
G1 X119.286 Y120.221 E185.04555
G1 X98.845 Y99.779 E185.83977
G1 X97.910 Y99.779 E185.86545
G1 X118.351 Y120.221 E186.65967
G1 X117.417 Y120.221 E186.68535
G1 X96.976 Y99.779 E187.47957
G1 X96.041 Y99.779 E187.50525
G1 X116.482 Y120.221 E188.29947
G1 X115.548 Y120.221 E188.32515
G1 X95.107 Y99.779 E189.11937
G1 X94.172 Y99.779 E189.14505
G1 X114.613 Y120.221 E189.93927
G1 X113.679 Y120.221 E189.96495
G1 X93.238 Y99.779 E190.75917
G1 X92.303 Y99.779 E190.78485
G1 X112.744 Y120.221 E191.57907
G1 X111.810 Y120.221 E191.60475
G1 X91.369 Y99.779 E192.39897
G1 X90.434 Y99.779 E192.42465
G1 X110.875 Y120.221 E193.21887
G1 X109.940 Y120.221 E193.24455
G1 X89.499 Y99.779 E194.03877
G1 X88.565 Y99.779 E194.06445
G1 X109.006 Y120.221 E194.85867
G1 X108.071 Y120.221 E194.88435
G1 X87.630 Y99.779 E195.67857
G1 X86.696 Y99.779 E195.70425
G1 X107.137 Y120.221 E196.49847
G1 X106.202 Y120.221 E196.52415
G1 X85.761 Y99.779 E197.31837
G1 X85.129 Y99.779 E197.33572
G1 X85.129 Y100.082 E197.34405
G1 X105.268 Y120.221 E198.12650
G1 X104.333 Y120.221 E198.15218
G1 X85.129 Y101.017 E198.89832
G1 X85.129 Y101.951 E198.92400
G1 X103.399 Y120.221 E199.63383
G1 X102.464 Y120.221 E199.65950
G1 X85.129 Y102.886 E200.33303
G1 X85.129 Y103.821 E200.35870
G1 X101.529 Y120.221 E200.99591
G1 X100.595 Y120.221 E201.02159
G1 X85.129 Y104.755 E201.62248
G1 X85.129 Y105.690 E201.64816
G1 X99.660 Y120.221 E202.21275
G1 X98.726 Y120.221 E202.23842
G1 X85.129 Y106.624 E202.76670
G1 X85.129 Y107.559 E202.79237
G1 X97.791 Y120.221 E203.28433
G1 X96.857 Y120.221 E203.31001
G1 X85.129 Y108.493 E203.76566
G1 X85.129 Y109.428 E203.79134
G1 X95.922 Y120.221 E204.21067
G1 X94.987 Y120.221 E204.23635
G1 X85.129 Y110.363 E204.61938
G1 X85.129 Y111.297 E204.64505
G1 X94.053 Y120.221 E204.99177
G1 X93.118 Y120.221 E205.01745
G1 X85.129 Y112.232 E205.32785
G1 X85.129 Y113.166 E205.35353
G1 X92.184 Y120.221 E205.62762
G1 X91.249 Y120.221 E205.65329
G1 X85.129 Y114.101 E205.89107
G1 X85.129 Y115.035 E205.91675
G1 X90.315 Y120.221 E206.11822
G1 X89.380 Y120.221 E206.14390
G1 X85.129 Y115.970 E206.30905
G1 X85.129 Y116.904 E206.33473
G1 X88.446 Y120.221 E206.46357
G1 X87.511 Y120.221 E206.48925
G1 X85.129 Y117.839 E206.58178
G1 X85.129 Y118.774 E206.60746
G1 X86.576 Y120.221 E206.66368
G1 X85.642 Y120.221 E206.68936
G1 X85.129 Y119.708 E206.70927
G1 Z0.550 F7800.000
G1 X135.273 Y120.623 F7800.000
G1 F3600
G1 X84.727 Y120.623 E208.09316
G1 X84.727 Y99.377 E208.67485
G1 X135.273 Y99.377 E210.05874
G1 X135.273 Y120.563 E210.63878
G1 X135.931 Y121.281 F7800.000
G1 F3600
G1 X84.069 Y121.281 E212.05873
G1 X84.069 Y98.719 E212.67648
G1 X135.931 Y98.719 E214.09643
G1 X135.931 Y121.221 E214.71254
G1 X136.450 Y121.800 F7800.000
G1 F1800
G1 X83.550 Y121.800 E215.54507
G1 X83.550 Y98.200 E215.91648
G1 X136.450 Y98.200 E216.74901
G1 X136.450 Y121.740 E217.11948
G1 X136.054 Y121.744 F7800.000
G1 X134.358 Y120.221 F7800.000
G1 F1200
G1 X134.871 Y119.708 E217.13939
G1 X134.871 Y118.774 E217.16507
G1 X133.424 Y120.221 E217.22129
G1 X132.489 Y120.221 E217.24696
G1 X134.871 Y117.839 E217.33949
G1 X134.871 Y116.904 E217.36517
G1 X131.554 Y120.221 E217.49401
G1 X130.620 Y120.221 E217.51969
G1 X134.871 Y115.970 E217.68484
G1 X134.871 Y115.035 E217.71052
G1 X129.685 Y120.221 E217.91199
G1 X128.751 Y120.221 E217.93766
G1 X134.871 Y114.101 E218.17544
G1 X134.871 Y113.166 E218.20112
G1 X127.816 Y120.221 E218.47520
G1 X126.882 Y120.221 E218.50088
G1 X134.871 Y112.232 E218.81128
G1 X134.871 Y111.297 E218.83696
G1 X125.947 Y120.221 E219.18367
G1 X125.013 Y120.221 E219.20935
G1 X134.871 Y110.363 E219.59237
G1 X134.871 Y109.428 E219.61805
G1 X124.078 Y120.221 E220.03738
G1 X123.143 Y120.221 E220.06306
G1 X134.871 Y108.493 E220.51871
G1 X134.871 Y107.559 E220.54438
G1 X122.209 Y120.221 E221.03634
G1 X121.274 Y120.221 E221.06202
G1 X134.871 Y106.624 E221.59029
G1 X134.871 Y105.690 E221.61597
G1 X120.340 Y120.221 E222.18055
G1 X119.405 Y120.221 E222.20622
G1 X134.871 Y104.755 E222.80712
G1 X134.871 Y103.821 E222.83280
G1 X118.471 Y120.221 E223.47000
G1 X117.536 Y120.221 E223.49568
G1 X134.871 Y102.886 E224.16919
G1 X134.871 Y101.952 E224.19487
G1 X116.602 Y120.221 E224.90470
G1 X115.667 Y120.221 E224.93038
G1 X134.871 Y101.017 E225.67652
G1 X134.871 Y100.082 E225.70219
G1 X114.732 Y120.221 E226.48465
G1 X113.798 Y120.221 E226.51032
G1 X134.239 Y99.779 E227.30455
G1 X133.304 Y99.779 E227.33022
G1 X112.863 Y120.221 E228.12445
G1 X111.929 Y120.221 E228.15012
G1 X132.370 Y99.779 E228.94435
G1 X131.435 Y99.779 E228.97002
G1 X110.994 Y120.221 E229.76425
G1 X110.060 Y120.221 E229.78992
G1 X130.501 Y99.779 E230.58415
G1 X129.566 Y99.779 E230.60982
G1 X109.125 Y120.221 E231.40405
G1 X108.191 Y120.221 E231.42972
G1 X128.632 Y99.779 E232.22395
G1 X127.697 Y99.779 E232.24962
G1 X107.256 Y120.221 E233.04385
G1 X106.321 Y120.221 E233.06952
G1 X126.762 Y99.779 E233.86375
G1 X125.828 Y99.779 E233.88942
G1 X105.387 Y120.221 E234.68365
G1 X104.452 Y120.221 E234.70932
G1 X124.893 Y99.779 E235.50355
G1 X123.959 Y99.779 E235.52922
G1 X103.518 Y120.221 E236.32345
G1 X102.583 Y120.221 E236.34912
G1 X123.024 Y99.779 E237.14335
G1 X122.090 Y99.779 E237.16902
G1 X101.649 Y120.221 E237.96325
G1 X100.714 Y120.221 E237.98892
G1 X121.155 Y99.779 E238.78315
G1 X120.221 Y99.779 E238.80882
G1 X99.780 Y120.221 E239.60305
G1 X98.845 Y120.221 E239.62872
G1 X119.286 Y99.779 E240.42295
G1 X118.351 Y99.779 E240.44862
G1 X97.910 Y120.221 E241.24285
G1 X96.976 Y120.221 E241.26852
G1 X117.417 Y99.779 E242.06275
G1 X116.482 Y99.779 E242.08842
G1 X96.041 Y120.221 E242.88265
G1 X95.107 Y120.221 E242.90832
G1 X115.548 Y99.779 E243.70255
G1 X114.613 Y99.779 E243.72822
G1 X94.172 Y120.221 E244.52245
G1 X93.238 Y120.221 E244.54812
G1 X113.679 Y99.779 E245.34235
G1 X112.744 Y99.779 E245.36802
G1 X92.303 Y120.221 E246.16225
G1 X91.368 Y120.221 E246.18792
G1 X111.810 Y99.779 E246.98215
G1 X110.875 Y99.779 E247.00782
G1 X90.434 Y120.221 E247.80205
G1 X89.499 Y120.221 E247.82772
G1 X109.940 Y99.779 E248.62195
G1 X109.006 Y99.779 E248.64762
G1 X88.565 Y120.221 E249.44185
G1 X87.630 Y120.221 E249.46752
G1 X108.071 Y99.779 E250.26175
G1 X107.137 Y99.779 E250.28742
